(.../EAGLE-7.5.0/ulp/pcb-gcode.ulp)
(Copyright 2005 - 2012 by John Johnson)
(See readme.txt for licensing terms.)
(This file generated from the board:)
(.../eagle/New_Project/espdh11new.brd)
(Current profile is .../EAGLE-7.5.0/ulp/profiles/generic.pp  )
(This file generated 18-Aug-16 4:47 PM)
(Settings from pcb-machine.h)
(  Tool Size)
(0.1000 )
(Z Axis Settings)
(  High     Up        Down     Drill)
(20.0000 	10.0000 	-0.1700 	-1.0000 )
(spindle on time = 10.0000)
(milling depth = -0.2540)
(text depth = -0.1270)
(tool change at 12.7000 15.2400 25.4000 )
(feed rate xy = F300.00 )
(feed rate z  = F300.00 )
(Settings from pcb-defaults.h)
(isolate min = 0.0254)
(isolate max = 0.0300)
(isolate step = 0.1000)
(Generated top outlines, top drill, )
(Unit of measure: mm)
( Tool|       Size       |  Min Sub |  Max Sub |   Count )
( T01  0.600mm 0.0236in 0.0000in 0.0000in )
( T02  0.800mm 0.0315in 0.0000in 0.0000in )
( T03  0.813mm 0.0320in 0.0000in 0.0000in )
( T04  1.016mm 0.0400in 0.0000in 0.0000in )
(Metric Mode)
G21
(Absolute Coordinates)
G90
M05
G00 Z25.4000 
G00 X12.7000 Y15.2400 
M06 T01  ; 0.6000 
G01 Z0.0000 F300.00 
M06 T01  ; 0.6000 
G00 Z10.0000 
M03
G04 P10.000000
G00 Z10.000000
G00 X7.6200 Y24.1300 
G01 Z-1.0000 F300.00 
G01 Z10.000000
(R10.0000  P1.000000)
(G00 Z10.000000)
G00 X1.2700 Y39.3700 
G01 Z-1.000000
G01 Z10.000000
(G00 Z10.000000)
G00 X1.2700 Y1.2700 
G01 Z-1.000000
G01 Z10.000000
(G00 Z10.000000)
G00 X15.2400 Y24.1300 
G01 Z-1.000000
G01 Z10.000000
(G00 Z10.000000)
G00 X26.6700 Y39.3700 
G01 Z-1.000000
G01 Z10.000000
(G00 Z10.000000)
G00 X26.6700 Y1.2700 
G01 Z-1.000000
G01 Z10.000000
M05
G00 Z25.4000 
M06 T02  ; 0.8000 
G01 Z0.0000 F300.00 
M06 T02  ; 0.8000 
G00 Z10.0000 
M03
G04 P10.000000
G00 Z10.000000
G00 X10.1450 Y8.3325 
G01 Z-1.0000 F300.00 
G01 Z10.000000
(R10.0000  P1.000000)
(G00 Z10.000000)
G00 X10.1450 Y10.8725 
G01 Z-1.000000
G01 Z10.000000
(G00 Z10.000000)
G00 X12.6850 Y8.3325 
G01 Z-1.000000
G01 Z10.000000
(G00 Z10.000000)
G00 X12.6850 Y10.8725 
G01 Z-1.000000
G01 Z10.000000
(G00 Z10.000000)
G00 X15.2250 Y8.3325 
G01 Z-1.000000
G01 Z10.000000
(G00 Z10.000000)
G00 X15.2250 Y10.8725 
G01 Z-1.000000
G01 Z10.000000
(G00 Z10.000000)
G00 X17.7650 Y8.3325 
G01 Z-1.000000
G01 Z10.000000
(G00 Z10.000000)
G00 X17.7650 Y10.8725 
G01 Z-1.000000
G01 Z10.000000
M05
G00 Z25.4000 
M06 T03  ; 0.8128 
G01 Z0.0000 F300.00 
M06 T03  ; 0.8128 
G00 Z10.0000 
M03
G04 P10.000000
G00 Z10.000000
G00 X13.9700 Y26.6700 
G01 Z-1.0000 F300.00 
G01 Z10.000000
(R10.0000  P1.000000)
(G00 Z10.000000)
G00 X19.0500 Y26.6700 
G01 Z-1.000000
G01 Z10.000000
M05
G00 Z25.4000 
M06 T04  ; 1.0160 
G01 Z0.0000 F300.00 
M06 T04  ; 1.0160 
G00 Z10.0000 
M03
G04 P10.000000
G00 Z10.000000
G00 X5.0800 Y35.5600 
G01 Z-1.0000 F300.00 
G01 Z10.000000
(R10.0000  P1.000000)
(G00 Z10.000000)
G00 X5.0800 Y24.1300 
G01 Z-1.000000
G01 Z10.000000
(G00 Z10.000000)
G00 X5.0800 Y26.6700 
G01 Z-1.000000
G01 Z10.000000
(G00 Z10.000000)
G00 X5.0800 Y29.2100 
G01 Z-1.000000
G01 Z10.000000
(G00 Z10.000000)
G00 X7.6200 Y35.5600 
G01 Z-1.000000
G01 Z10.000000
(G00 Z10.000000)
G00 X11.4300 Y35.5600 
G01 Z-1.000000
G01 Z10.000000
(G00 Z10.000000)
G00 X13.9700 Y35.5600 
G01 Z-1.000000
G01 Z10.000000
(G00 Z10.000000)
G00 X15.2400 Y3.8100 
G01 Z-1.000000
G01 Z10.000000
(G00 Z10.000000)
G00 X16.5100 Y35.5600 
G01 Z-1.000000
G01 Z10.000000
(G00 Z10.000000)
G00 X24.1300 Y33.0200 
G01 Z-1.000000
G01 Z10.000000
(G00 Z10.000000)
G00 X24.1300 Y15.2400 
G01 Z-1.000000
G01 Z10.000000
(G00 Z10.000000)
G00 X24.1300 Y17.7800 
G01 Z-1.000000
G01 Z10.000000
(G00 Z10.000000)
G00 X24.1300 Y20.3200 
G01 Z-1.000000
G01 Z10.000000
(G00 Z10.000000)
G00 X24.1300 Y25.4000 
G01 Z-1.000000
G01 Z10.000000
(G00 Z10.000000)
G00 X24.1300 Y27.9400 
G01 Z-1.000000
G01 Z10.000000
(G00 Z10.000000)
G00 X24.1300 Y30.4800 
G01 Z-1.000000
G01 Z10.000000
T01 
G00 Z20.0000 
M05
M02
