(.../EAGLE-7.5.0/ulp/pcb-gcode.ulp)
(Copyright 2005 - 2012 by John Johnson)
(See readme.txt for licensing terms.)
(This file generated from the board:)
(.../eagle/New_Project/espdh11new.brd)
(Current profile is .../EAGLE-7.5.0/ulp/profiles/generic.pp  )
(This file generated 18-Aug-16 4:47 PM)
(Settings from pcb-machine.h)
(  Tool Size)
(0.1000 )
(Z Axis Settings)
(  High     Up        Down     Drill)
(20.0000 	10.0000 	-0.1700 	-1.0000 )
(spindle on time = 10.0000)
(milling depth = -0.2540)
(text depth = -0.1270)
(tool change at 12.7000 15.2400 25.4000 )
(feed rate xy = F300.00 )
(feed rate z  = F300.00 )
(Settings from pcb-defaults.h)
(isolate min = 0.0254)
(isolate max = 0.0300)
(isolate step = 0.1000)
(Generated top outlines, top drill, )
(Unit of measure: mm)
(Metric Mode)
G21
(Absolute Coordinates)
G90
G00 X0.0000 Y0.0000 
M03
G04 P10.000000
G00 Z10.0000 
G00 X22.6137 Y17.2760 
G01 Z-0.1700 F300.00 
G01 X22.4782 Y17.6030 F300.00 
G01 X22.4782 Y17.9570 
G01 X22.6137 Y18.2840 
G01 X22.8640 Y18.5343 
G01 X23.1910 Y18.6698 
G01 X25.0690 Y18.6698 
G01 X25.3960 Y18.5343 
G01 X25.6463 Y18.2840 
G01 X25.7818 Y17.9570 
G01 X25.7818 Y17.6030 
G01 X25.6463 Y17.2760 
G01 X25.3960 Y17.0257 
G01 X25.0690 Y16.8902 
G01 X23.1910 Y16.8902 
G01 X22.8640 Y17.0257 
G01 X22.6137 Y17.2760 
G00 Z10.0000 
G00 X23.2855 Y16.9426 
G01 Z-0.1700 F300.00 
G01 X24.9745 Y16.9426 F300.00 
G01 X25.1363 Y16.9748 
G01 X25.2887 Y17.0379 
G01 X25.4258 Y17.1295 
G01 X25.5425 Y17.2462 
G01 X25.6341 Y17.3833 
G01 X25.6972 Y17.5357 
G01 X25.7294 Y17.6975 
G01 X25.7294 Y17.8625 
G01 X25.6972 Y18.0243 
G01 X25.6341 Y18.1767 
G01 X25.5425 Y18.3138 
G01 X25.4258 Y18.4305 
G01 X25.2887 Y18.5221 
G01 X25.1363 Y18.5852 
G01 X24.9745 Y18.6174 
G01 X23.2855 Y18.6174 
G01 X23.1237 Y18.5852 
G01 X22.9713 Y18.5221 
G01 X22.8342 Y18.4305 
G01 X22.7175 Y18.3138 
G01 X22.6259 Y18.1767 
G01 X22.5628 Y18.0243 
G01 X22.5306 Y17.8625 
G01 X22.5306 Y17.6975 
G01 X22.5628 Y17.5357 
G01 X22.6259 Y17.3833 
G01 X22.7175 Y17.2462 
G01 X22.8342 Y17.1295 
G01 X22.9713 Y17.0379 
G01 X23.1237 Y16.9748 
G01 X23.2855 Y16.9426 
G00 Z10.0000 
G00 X8.5606 Y34.7240 
G01 Z-0.1700 F300.00 
G01 X8.5374 Y34.5777 F300.00 
G01 X8.4917 Y34.4369 
G01 X8.4245 Y34.3050 
G01 X8.3375 Y34.1852 
G01 X8.2328 Y34.0805 
G01 X8.1130 Y33.9935 
G01 X7.9811 Y33.9263 
G01 X7.8403 Y33.8806 
G01 X7.8154 Y33.8766 
G01 X7.8154 Y33.9831 
G01 X7.8643 Y33.9928 
G01 X8.0167 Y34.0559 
G01 X8.1538 Y34.1475 
G01 X8.2705 Y34.2642 
G01 X8.3621 Y34.4013 
G01 X8.4252 Y34.5537 
G01 X8.4574 Y34.7155 
G01 X8.4574 Y35.3646 
G01 X8.5606 Y35.3646 
G01 X8.5606 Y34.7240 
G00 Z10.0000 
G00 X8.3375 Y36.9348 
G01 Z-0.1700 F300.00 
G01 X8.4245 Y36.8150 F300.00 
G01 X8.4917 Y36.6831 
G01 X8.5374 Y36.5423 
G01 X8.5606 Y36.3960 
G01 X8.5606 Y35.7554 
G01 X8.4574 Y35.7554 
G01 X8.4574 Y36.4045 
G01 X8.4252 Y36.5663 
G01 X8.3621 Y36.7187 
G01 X8.2705 Y36.8558 
G01 X8.1538 Y36.9725 
G01 X8.0834 Y37.0195 
G01 X8.0834 Y37.1415 
G01 X8.1130 Y37.1265 
G01 X8.2328 Y37.0395 
G01 X8.3375 Y36.9348 
G00 Z10.0000 
G00 X6.6794 Y36.3960 
G01 Z-0.1700 F300.00 
G01 X6.7026 Y36.5423 F300.00 
G01 X6.7483 Y36.6831 
G01 X6.8155 Y36.8150 
G01 X6.9025 Y36.9348 
G01 X6.9166 Y36.9488 
G01 X6.9166 Y36.7766 
G01 X6.8779 Y36.7187 
G01 X6.8148 Y36.5663 
G01 X6.7826 Y36.4045 
G01 X6.7826 Y35.7554 
G01 X6.6794 Y35.7554 
G01 X6.6794 Y36.3960 
G00 Z10.0000 
G00 X3.4006 Y29.4303 
G01 Z-0.1700 F300.00 
G01 X3.4463 Y29.5711 F300.00 
G01 X3.5135 Y29.7030 
G01 X3.6005 Y29.8228 
G01 X3.7052 Y29.9275 
G01 X3.7297 Y29.9452 
G01 X3.8024 Y29.8726 
G01 X3.7842 Y29.8605 
G01 X3.6675 Y29.7438 
G01 X3.5759 Y29.6067 
G01 X3.5128 Y29.4543 
G01 X3.5031 Y29.4054 
G01 X3.3966 Y29.4054 
G01 X3.4006 Y29.4303 
G00 Z10.0000 
G00 X23.2855 Y32.1826 
G01 Z-0.1700 F300.00 
G01 X23.9346 Y32.1826 F300.00 
G01 X23.9346 Y32.0794 
G01 X23.2940 Y32.0794 
G01 X23.1477 Y32.1026 
G01 X23.0069 Y32.1483 
G01 X22.8750 Y32.2155 
G01 X22.7552 Y32.3025 
G01 X22.6505 Y32.4072 
G01 X22.5635 Y32.5270 
G01 X22.4963 Y32.6589 
G01 X22.4506 Y32.7997 
G01 X22.4466 Y32.8246 
G01 X22.5531 Y32.8246 
G01 X22.5628 Y32.7757 
G01 X22.6259 Y32.6233 
G01 X22.7175 Y32.4862 
G01 X22.8342 Y32.3695 
G01 X22.9713 Y32.2779 
G01 X23.1237 Y32.2148 
G01 X23.2855 Y32.1826 
G00 Z10.0000 
G00 X8.9055 Y11.1701 
G01 Z-0.1700 F300.00 
G01 X8.9493 Y11.3050 F300.00 
G01 X8.9830 Y11.2237 
G01 X9.0156 Y11.1749 
G01 X9.0061 Y11.1459 
G01 X8.9938 Y11.0679 
G01 X8.8893 Y11.0679 
G01 X8.9055 Y11.1701 
G00 Z10.0000 
G00 X15.6726 Y34.7155 
G01 Z-0.1700 F300.00 
G01 X15.7048 Y34.5537 F300.00 
G01 X15.7679 Y34.4013 
G01 X15.8595 Y34.2642 
G01 X15.9762 Y34.1475 
G01 X16.1133 Y34.0559 
G01 X16.2174 Y34.0128 
G01 X16.1281 Y33.9532 
G01 X16.1174 Y33.9424 
G01 X16.0170 Y33.9935 
G01 X15.8972 Y34.0805 
G01 X15.7925 Y34.1852 
G01 X15.7055 Y34.3050 
G01 X15.6383 Y34.4369 
G01 X15.5926 Y34.5777 
G01 X15.5694 Y34.7240 
G01 X15.5694 Y35.3646 
G01 X15.6726 Y35.3646 
G01 X15.6726 Y34.7155 
G00 Z10.0000 
G00 X24.9745 Y19.4826 
G01 Z-0.1700 F300.00 
G01 X25.1363 Y19.5148 F300.00 
G01 X25.2887 Y19.5779 
G01 X25.4258 Y19.6695 
G01 X25.5425 Y19.7862 
G01 X25.6341 Y19.9233 
G01 X25.6972 Y20.0757 
G01 X25.7069 Y20.1246 
G01 X25.8134 Y20.1246 
G01 X25.8094 Y20.0997 
G01 X25.7637 Y19.9589 
G01 X25.6965 Y19.8270 
G01 X25.6095 Y19.7072 
G01 X25.5048 Y19.6025 
G01 X25.3850 Y19.5155 
G01 X25.2531 Y19.4483 
G01 X25.1123 Y19.4026 
G01 X24.9660 Y19.3794 
G01 X24.3254 Y19.3794 
G01 X24.3254 Y19.4826 
G01 X24.9745 Y19.4826 
G00 Z10.0000 
G00 X25.6972 Y20.5643 
G01 Z-0.1700 F300.00 
G01 X25.6341 Y20.7167 F300.00 
G01 X25.5971 Y20.7720 
G01 X25.6719 Y20.8468 
G01 X25.6965 Y20.8130 
G01 X25.7637 Y20.6811 
G01 X25.8094 Y20.5403 
G01 X25.8134 Y20.5154 
G01 X25.7069 Y20.5154 
G01 X25.6972 Y20.5643 
G00 Z10.0000 
G00 X22.5628 Y20.0757 
G01 Z-0.1700 F300.00 
G01 X22.6259 Y19.9233 F300.00 
G01 X22.7175 Y19.7862 
G01 X22.8342 Y19.6695 
G01 X22.9713 Y19.5779 
G01 X23.1237 Y19.5148 
G01 X23.2855 Y19.4826 
G01 X23.9346 Y19.4826 
G01 X23.9346 Y19.3794 
G01 X23.2940 Y19.3794 
G01 X23.1477 Y19.4026 
G01 X23.0069 Y19.4483 
G01 X22.8750 Y19.5155 
G01 X22.7552 Y19.6025 
G01 X22.6505 Y19.7072 
G01 X22.5635 Y19.8270 
G01 X22.4963 Y19.9589 
G01 X22.4506 Y20.0997 
G01 X22.4466 Y20.1246 
G01 X22.5531 Y20.1246 
G01 X22.5628 Y20.0757 
G00 Z10.0000 
G00 X4.2440 Y28.2694 
G01 Z-0.1700 F300.00 
G01 X4.0977 Y28.2926 F300.00 
G01 X3.9569 Y28.3383 
G01 X3.8250 Y28.4055 
G01 X3.7052 Y28.4925 
G01 X3.6005 Y28.5972 
G01 X3.5135 Y28.7170 
G01 X3.4463 Y28.8489 
G01 X3.4006 Y28.9897 
G01 X3.3966 Y29.0146 
G01 X3.5031 Y29.0146 
G01 X3.5128 Y28.9657 
G01 X3.5759 Y28.8133 
G01 X3.6675 Y28.6762 
G01 X3.7842 Y28.5595 
G01 X3.9213 Y28.4679 
G01 X4.0737 Y28.4048 
G01 X4.2355 Y28.3726 
G01 X4.8846 Y28.3726 
G01 X4.8846 Y28.2694 
G01 X4.2440 Y28.2694 
G00 Z10.0000 
G00 X10.9260 Y37.0763 
G01 Z-0.1700 F300.00 
G01 X11.2530 Y37.2118 F300.00 
G01 X11.6070 Y37.2118 
G01 X11.9340 Y37.0763 
G01 X12.1843 Y36.8260 
G01 X12.3198 Y36.4990 
G01 X12.3198 Y34.6210 
G01 X12.1843 Y34.2940 
G01 X11.9340 Y34.0437 
G01 X11.6070 Y33.9082 
G01 X11.2530 Y33.9082 
G01 X10.9260 Y34.0437 
G01 X10.6757 Y34.2940 
G01 X10.5402 Y34.6210 
G01 X10.5402 Y36.4990 
G01 X10.6757 Y36.8260 
G01 X10.9260 Y37.0763 
G00 Z10.0000 
G00 X10.5926 Y36.4045 
G01 Z-0.1700 F300.00 
G01 X10.5926 Y34.7155 F300.00 
G01 X10.6248 Y34.5537 
G01 X10.6879 Y34.4013 
G01 X10.7795 Y34.2642 
G01 X10.8962 Y34.1475 
G01 X11.0333 Y34.0559 
G01 X11.1857 Y33.9928 
G01 X11.3475 Y33.9606 
G01 X11.5125 Y33.9606 
G01 X11.6743 Y33.9928 
G01 X11.8267 Y34.0559 
G01 X11.9638 Y34.1475 
G01 X12.0805 Y34.2642 
G01 X12.1721 Y34.4013 
G01 X12.2352 Y34.5537 
G01 X12.2674 Y34.7155 
G01 X12.2674 Y36.4045 
G01 X12.2352 Y36.5663 
G01 X12.1721 Y36.7187 
G01 X12.0805 Y36.8558 
G01 X11.9638 Y36.9725 
G01 X11.8267 Y37.0641 
G01 X11.6743 Y37.1272 
G01 X11.5125 Y37.1594 
G01 X11.3475 Y37.1594 
G01 X11.1857 Y37.1272 
G01 X11.0333 Y37.0641 
G01 X10.8962 Y36.9725 
G01 X10.7795 Y36.8558 
G01 X10.6879 Y36.7187 
G01 X10.6248 Y36.5663 
G01 X10.5926 Y36.4045 
G00 Z10.0000 
G00 X27.3727 Y40.4217 
G01 Z-0.1700 F300.00 
G01 X27.7217 Y40.0727 F300.00 
G01 X27.8252 Y39.8229 
G01 X27.8633 Y39.7848 
G01 X27.9131 Y39.7642 
G01 X27.9669 Y39.7642 
G01 X28.0167 Y39.7848 
G01 X28.0548 Y39.8229 
G01 X28.0754 Y39.8727 
G01 X28.0754 Y40.6669 
G01 X28.0548 Y40.7167 
G01 X28.0167 Y40.7548 
G01 X27.9669 Y40.7754 
G01 X27.1727 Y40.7754 
G01 X27.1229 Y40.7548 
G01 X27.0848 Y40.7167 
G01 X27.0642 Y40.6669 
G01 X27.0642 Y40.6131 
G01 X27.0848 Y40.5633 
G01 X27.1229 Y40.5252 
G01 X27.3727 Y40.4217 
G00 Z10.0000 
G00 X13.1338 Y9.7379 
G01 Z-0.1700 F300.00 
G01 X13.0841 Y9.7173 F300.00 
G01 X13.0466 Y9.6798 
G01 X13.0254 Y9.6294 
G01 X13.0254 Y9.5756 
G01 X13.0460 Y9.5258 
G01 X13.0835 Y9.4883 
G01 X13.1338 Y9.4671 
G01 X13.3761 Y9.3668 
G01 X13.7193 Y9.0236 
G01 X13.8196 Y8.7813 
G01 X13.8384 Y8.7361 
G01 X13.8402 Y8.7316 
G01 X13.8783 Y8.6935 
G01 X13.9281 Y8.6729 
G01 X13.9819 Y8.6729 
G01 X14.0303 Y8.6929 
G01 X14.0698 Y8.7316 
G01 X14.0904 Y8.7813 
G01 X14.1907 Y9.0236 
G01 X14.5339 Y9.3668 
G01 X14.7762 Y9.4671 
G01 X14.8214 Y9.4859 
G01 X14.8259 Y9.4877 
G01 X14.8640 Y9.5258 
G01 X14.8846 Y9.5756 
G01 X14.8846 Y9.6294 
G01 X14.8646 Y9.6778 
G01 X14.8259 Y9.7173 
G01 X14.7762 Y9.7379 
G01 X14.5339 Y9.8382 
G01 X14.1907 Y10.1814 
G01 X14.0904 Y10.4237 
G01 X14.0716 Y10.4689 
G01 X14.0698 Y10.4734 
G01 X14.0317 Y10.5115 
G01 X13.9819 Y10.5321 
G01 X13.9281 Y10.5321 
G01 X13.8797 Y10.5121 
G01 X13.8402 Y10.4734 
G01 X13.8196 Y10.4237 
G01 X13.7193 Y10.1814 
G01 X13.3761 Y9.8382 
G01 X13.1338 Y9.7379 
G00 Z10.0000 
G00 X10.6153 Y9.6878 
G01 Z-0.1700 F300.00 
G01 X10.6114 Y9.6839 F300.00 
G01 X10.6065 Y9.6814 
G01 X10.5925 Y9.6650 
G01 X10.5772 Y9.6497 
G01 X10.5751 Y9.6446 
G01 X10.5716 Y9.6405 
G01 X10.5649 Y9.6199 
G01 X10.5566 Y9.5999 
G01 X10.5566 Y9.5944 
G01 X10.5549 Y9.5892 
G01 X10.5566 Y9.5677 
G01 X10.5566 Y9.5461 
G01 X10.5587 Y9.5410 
G01 X10.5591 Y9.5355 
G01 X10.5689 Y9.5163 
G01 X10.5772 Y9.4963 
G01 X10.5811 Y9.4924 
G01 X10.5836 Y9.4875 
G01 X10.6000 Y9.4735 
G01 X10.6153 Y9.4582 
G01 X10.6204 Y9.4561 
G01 X10.6245 Y9.4525 
G01 X10.6451 Y9.4459 
G01 X10.8361 Y9.3668 
G01 X11.1793 Y9.0236 
G01 X11.2796 Y8.7813 
G01 X11.2984 Y8.7361 
G01 X11.3002 Y8.7316 
G01 X11.3383 Y8.6935 
G01 X11.3881 Y8.6729 
G01 X11.4419 Y8.6729 
G01 X11.4903 Y8.6929 
G01 X11.5298 Y8.7316 
G01 X11.5504 Y8.7813 
G01 X11.6507 Y9.0236 
G01 X11.9939 Y9.3668 
G01 X12.2362 Y9.4671 
G01 X12.2814 Y9.4859 
G01 X12.2859 Y9.4877 
G01 X12.3240 Y9.5258 
G01 X12.3446 Y9.5756 
G01 X12.3446 Y9.6294 
G01 X12.3246 Y9.6778 
G01 X12.2859 Y9.7173 
G01 X12.2362 Y9.7379 
G01 X11.9939 Y9.8382 
G01 X11.6507 Y10.1814 
G01 X11.5716 Y10.3724 
G01 X11.5649 Y10.3930 
G01 X11.5614 Y10.3971 
G01 X11.5593 Y10.4022 
G01 X11.5440 Y10.4175 
G01 X11.5300 Y10.4339 
G01 X11.5251 Y10.4364 
G01 X11.5212 Y10.4403 
G01 X11.5012 Y10.4486 
G01 X11.4820 Y10.4584 
G01 X11.4765 Y10.4588 
G01 X11.4714 Y10.4609 
G01 X11.4498 Y10.4609 
G01 X11.4283 Y10.4626 
G01 X11.4231 Y10.4609 
G01 X11.4176 Y10.4609 
G01 X11.3976 Y10.4526 
G01 X11.3770 Y10.4459 
G01 X11.3729 Y10.4424 
G01 X11.3678 Y10.4403 
G01 X11.3525 Y10.4250 
G01 X11.3361 Y10.4110 
G01 X11.3336 Y10.4061 
G01 X11.3297 Y10.4022 
G01 X11.3214 Y10.3822 
G01 X11.2319 Y10.2065 
G01 X11.1143 Y10.0446 
G01 X10.9729 Y9.9032 
G01 X10.8110 Y9.7856 
G01 X10.6353 Y9.6961 
G01 X10.6153 Y9.6878 
G00 Z10.0000 
G00 X16.3596 Y8.7813 
G01 Z-0.1700 F300.00 
G01 X16.3802 Y8.7316 F300.00 
G01 X16.4177 Y8.6941 
G01 X16.4681 Y8.6729 
G01 X16.5219 Y8.6729 
G01 X16.5717 Y8.6935 
G01 X16.6092 Y8.7310 
G01 X16.6304 Y8.7813 
G01 X16.7307 Y9.0236 
G01 X17.0739 Y9.3668 
G01 X17.3162 Y9.4671 
G01 X17.3614 Y9.4859 
G01 X17.3659 Y9.4877 
G01 X17.4040 Y9.5258 
G01 X17.4246 Y9.5756 
G01 X17.4246 Y9.6294 
G01 X17.4046 Y9.6778 
G01 X17.3659 Y9.7173 
G01 X17.3162 Y9.7379 
G01 X17.0739 Y9.8382 
G01 X16.7307 Y10.1814 
G01 X16.6304 Y10.4237 
G01 X16.6098 Y10.4734 
G01 X16.5723 Y10.5109 
G01 X16.5219 Y10.5321 
G01 X16.4681 Y10.5321 
G01 X16.4183 Y10.5115 
G01 X16.3808 Y10.4740 
G01 X16.3596 Y10.4237 
G01 X16.2593 Y10.1814 
G01 X15.9161 Y9.8382 
G01 X15.6738 Y9.7379 
G01 X15.6241 Y9.7173 
G01 X15.5866 Y9.6798 
G01 X15.5654 Y9.6294 
G01 X15.5654 Y9.5756 
G01 X15.5860 Y9.5258 
G01 X15.6235 Y9.4883 
G01 X15.6738 Y9.4671 
G01 X15.9161 Y9.3668 
G01 X16.2593 Y9.0236 
G01 X16.3596 Y8.7813 
G00 Z10.0000 
G00 X24.7326 Y13.7674 
G01 Z-0.1700 F300.00 
G01 X21.7494 Y13.7674 F300.00 
G01 X21.7302 Y13.7622 
G01 X21.7130 Y13.7523 
G01 X21.6990 Y13.7383 
G01 X21.6891 Y13.7211 
G01 X21.6839 Y13.7019 
G01 X21.6839 Y1.9374 
G01 X21.6891 Y1.9182 
G01 X21.6990 Y1.9010 
G01 X21.7130 Y1.8870 
G01 X21.7302 Y1.8771 
G01 X21.7494 Y1.8719 
G01 X27.2726 Y1.8719 
G01 X27.2918 Y1.8771 
G01 X27.3090 Y1.8870 
G01 X27.3230 Y1.9010 
G01 X27.3329 Y1.9182 
G01 X27.3381 Y1.9374 
G01 X27.3381 Y7.9626 
G01 X27.3329 Y7.9817 
G01 X27.3230 Y7.9989 
G01 X27.3090 Y8.0130 
G01 X27.2918 Y8.0229 
G01 X27.2726 Y8.0280 
G01 X24.7981 Y8.0280 
G01 X24.7981 Y13.7019 
G01 X24.7929 Y13.7211 
G01 X24.7830 Y13.7383 
G01 X24.7690 Y13.7523 
G01 X24.7518 Y13.7622 
G01 X24.7326 Y13.7674 
G00 Z10.0000 
G00 X4.2426 Y36.4045 
G01 Z-0.1700 F300.00 
G01 X4.2426 Y34.7155 F300.00 
G01 X4.2748 Y34.5537 
G01 X4.3379 Y34.4013 
G01 X4.4295 Y34.2642 
G01 X4.5462 Y34.1475 
G01 X4.6833 Y34.0559 
G01 X4.8357 Y33.9928 
G01 X4.9975 Y33.9606 
G01 X5.1625 Y33.9606 
G01 X5.2057 Y33.9692 
G01 X6.9166 Y32.2583 
G01 X6.9166 Y25.0834 
G01 X5.5185 Y25.0834 
G01 X5.4795 Y25.0859 
G01 X5.4611 Y25.0834 
G01 X5.4425 Y25.0834 
G01 X5.4043 Y25.0758 
G01 X5.3656 Y25.0706 
G01 X5.3480 Y25.0646 
G01 X5.3298 Y25.0610 
G01 X5.2938 Y25.0460 
G01 X5.2569 Y25.0334 
G01 X5.2408 Y25.0241 
G01 X5.2237 Y25.0170 
G01 X5.1912 Y24.9953 
G01 X5.1575 Y24.9757 
G01 X5.1480 Y24.9674 
G01 X4.2355 Y24.9674 
G01 X4.0737 Y24.9352 
G01 X3.9213 Y24.8721 
G01 X3.7842 Y24.7805 
G01 X3.6675 Y24.6638 
G01 X3.5759 Y24.5267 
G01 X3.5128 Y24.3743 
G01 X3.4806 Y24.2125 
G01 X3.4806 Y24.0475 
G01 X3.5128 Y23.8857 
G01 X3.5759 Y23.7333 
G01 X3.6675 Y23.5962 
G01 X3.7842 Y23.4795 
G01 X3.9213 Y23.3879 
G01 X4.0737 Y23.3248 
G01 X4.2355 Y23.2926 
G01 X5.9245 Y23.2926 
G01 X6.0863 Y23.3248 
G01 X6.2387 Y23.3879 
G01 X6.3758 Y23.4795 
G01 X6.4925 Y23.5962 
G01 X6.5841 Y23.7333 
G01 X6.6472 Y23.8857 
G01 X6.6534 Y23.9166 
G01 X6.7064 Y23.9166 
G01 X6.7064 Y23.7516 
G01 X7.2416 Y23.2164 
G01 X7.9984 Y23.2164 
G01 X8.5336 Y23.7516 
G01 X8.5336 Y24.5084 
G01 X8.0834 Y24.9586 
G01 X8.0834 Y32.5575 
G01 X8.0610 Y32.6702 
G01 X8.0170 Y32.7763 
G01 X7.9532 Y32.8719 
G01 X6.0834 Y34.7416 
G01 X6.0834 Y35.4585 
G01 X6.0857 Y35.4744 
G01 X6.0834 Y35.5159 
G01 X6.0834 Y35.5575 
G01 X6.0803 Y35.5731 
G01 X6.0794 Y35.5891 
G01 X6.0691 Y35.6294 
G01 X6.0610 Y35.6702 
G01 X6.0549 Y35.6850 
G01 X6.0509 Y35.7005 
G01 X6.0329 Y35.7379 
G01 X6.0170 Y35.7763 
G01 X6.0081 Y35.7896 
G01 X6.0012 Y35.8041 
G01 X5.9762 Y35.8373 
G01 X5.9532 Y35.8719 
G01 X5.9418 Y35.8832 
G01 X5.9322 Y35.8960 
G01 X5.9174 Y35.9093 
G01 X5.9174 Y36.4045 
G01 X5.8852 Y36.5663 
G01 X5.8221 Y36.7187 
G01 X5.7305 Y36.8558 
G01 X5.6138 Y36.9725 
G01 X5.4767 Y37.0641 
G01 X5.3243 Y37.1272 
G01 X5.1625 Y37.1594 
G01 X4.9975 Y37.1594 
G01 X4.8357 Y37.1272 
G01 X4.6833 Y37.0641 
G01 X4.5462 Y36.9725 
G01 X4.4295 Y36.8558 
G01 X4.3379 Y36.7187 
G01 X4.2748 Y36.5663 
G01 X4.2426 Y36.4045 
G00 Z10.0000 
G00 X23.2855 Y27.1026 
G01 Z-0.1700 F300.00 
G01 X24.9745 Y27.1026 F300.00 
G01 X25.1363 Y27.1348 
G01 X25.2887 Y27.1979 
G01 X25.4258 Y27.2895 
G01 X25.5425 Y27.4062 
G01 X25.6341 Y27.5433 
G01 X25.6972 Y27.6957 
G01 X25.7294 Y27.8575 
G01 X25.7294 Y28.0225 
G01 X25.6972 Y28.1843 
G01 X25.6341 Y28.3367 
G01 X25.5425 Y28.4738 
G01 X25.4258 Y28.5905 
G01 X25.2887 Y28.6821 
G01 X25.1363 Y28.7452 
G01 X24.9745 Y28.7774 
G01 X23.2855 Y28.7774 
G01 X23.1237 Y28.7452 
G01 X22.9713 Y28.6821 
G01 X22.8342 Y28.5905 
G01 X22.8271 Y28.5834 
G01 X20.2416 Y28.5834 
G01 X19.9532 Y28.8719 
G01 X19.8719 Y28.9532 
G01 X19.7763 Y29.0170 
G01 X19.6702 Y29.0610 
G01 X19.5575 Y29.0834 
G01 X13.9425 Y29.0834 
G01 X13.8298 Y29.0610 
G01 X13.7237 Y29.0170 
G01 X13.6281 Y28.9532 
G01 X13.5468 Y28.8719 
G01 X13.4830 Y28.7763 
G01 X13.4390 Y28.6702 
G01 X13.4166 Y28.5575 
G01 X13.4166 Y27.1572 
G01 X13.3137 Y27.0543 
G01 X13.2890 Y27.0441 
G01 X13.2475 Y27.0291 
G01 X13.2360 Y27.0221 
G01 X13.2237 Y27.0170 
G01 X13.1870 Y26.9925 
G01 X13.1492 Y26.9697 
G01 X13.1392 Y26.9606 
G01 X13.1281 Y26.9532 
G01 X13.0969 Y26.9220 
G01 X13.0643 Y26.8922 
G01 X13.0563 Y26.8814 
G01 X12.6281 Y26.4532 
G01 X12.5468 Y26.3719 
G01 X12.4830 Y26.2763 
G01 X12.4390 Y26.1702 
G01 X12.4166 Y26.0575 
G01 X12.4166 Y12.0121 
G01 X12.4116 Y12.0113 
G01 X12.2368 Y11.9546 
G01 X12.0730 Y11.8711 
G01 X11.9244 Y11.7631 
G01 X11.7944 Y11.6331 
G01 X11.6864 Y11.4845 
G01 X11.6029 Y11.3207 
G01 X11.5462 Y11.1459 
G01 X11.5174 Y10.9644 
G01 X11.5174 Y10.7806 
G01 X11.5462 Y10.5991 
G01 X11.6029 Y10.4243 
G01 X11.6864 Y10.2605 
G01 X11.7944 Y10.1119 
G01 X11.9244 Y9.9819 
G01 X12.0730 Y9.8739 
G01 X12.2368 Y9.7904 
G01 X12.4116 Y9.7337 
G01 X12.5931 Y9.7049 
G01 X12.7769 Y9.7049 
G01 X12.9584 Y9.7337 
G01 X13.1332 Y9.7904 
G01 X13.2970 Y9.8739 
G01 X13.4456 Y9.9819 
G01 X13.5756 Y10.1119 
G01 X13.6836 Y10.2605 
G01 X13.7671 Y10.4243 
G01 X13.8238 Y10.5991 
G01 X13.8526 Y10.7806 
G01 X13.8526 Y10.9644 
G01 X13.8238 Y11.1459 
G01 X13.7671 Y11.3207 
G01 X13.6836 Y11.4845 
G01 X13.5834 Y11.6224 
G01 X13.5834 Y25.7583 
G01 X13.7592 Y25.9342 
G01 X14.2748 Y25.9342 
G01 X14.7058 Y26.3652 
G01 X14.7058 Y26.9748 
G01 X14.5834 Y27.0972 
G01 X14.5834 Y27.9166 
G01 X19.2583 Y27.9166 
G01 X19.6281 Y27.5468 
G01 X19.7237 Y27.4830 
G01 X19.8298 Y27.4390 
G01 X19.9425 Y27.4166 
G01 X22.7106 Y27.4166 
G01 X22.7175 Y27.4062 
G01 X22.8342 Y27.2895 
G01 X22.9713 Y27.1979 
G01 X23.1237 Y27.1348 
G01 X23.2855 Y27.1026 
G00 Z10.0000 
G00 X23.2855 Y29.6426 
G01 Z-0.1700 F300.00 
G01 X24.9745 Y29.6426 F300.00 
G01 X25.1363 Y29.6748 
G01 X25.2887 Y29.7379 
G01 X25.4258 Y29.8295 
G01 X25.5425 Y29.9462 
G01 X25.6341 Y30.0833 
G01 X25.6972 Y30.2357 
G01 X25.7294 Y30.3975 
G01 X25.7294 Y30.5625 
G01 X25.6972 Y30.7243 
G01 X25.6341 Y30.8767 
G01 X25.5425 Y31.0138 
G01 X25.4258 Y31.1304 
G01 X25.2887 Y31.2221 
G01 X25.1363 Y31.2852 
G01 X24.9745 Y31.3174 
G01 X23.2855 Y31.3174 
G01 X23.1237 Y31.2852 
G01 X22.9713 Y31.2221 
G01 X22.8342 Y31.1304 
G01 X22.7175 Y31.0138 
G01 X22.6259 Y30.8767 
G01 X22.5628 Y30.7243 
G01 X22.5306 Y30.5625 
G01 X22.5306 Y30.3975 
G01 X22.5628 Y30.2357 
G01 X22.6259 Y30.0833 
G01 X22.7175 Y29.9462 
G01 X22.8342 Y29.8295 
G01 X22.9713 Y29.7379 
G01 X23.1237 Y29.6748 
G01 X23.2855 Y29.6426 
G00 Z10.0000 
G00 X24.9745 Y32.1826 
G01 Z-0.1700 F300.00 
G01 X25.1363 Y32.2148 F300.00 
G01 X25.2887 Y32.2779 
G01 X25.4258 Y32.3695 
G01 X25.5425 Y32.4862 
G01 X25.6341 Y32.6233 
G01 X25.6972 Y32.7757 
G01 X25.7294 Y32.9375 
G01 X25.7294 Y33.1025 
G01 X25.6972 Y33.2643 
G01 X25.6341 Y33.4167 
G01 X25.5425 Y33.5538 
G01 X25.4258 Y33.6705 
G01 X25.2887 Y33.7621 
G01 X25.1363 Y33.8252 
G01 X24.9745 Y33.8574 
G01 X24.4628 Y33.8574 
G01 X24.4532 Y33.8719 
G01 X24.4390 Y33.8860 
G01 X24.4268 Y33.9019 
G01 X24.3985 Y33.9266 
G01 X24.3719 Y33.9532 
G01 X24.3608 Y33.9606 
G01 X24.8403 Y33.9606 
G01 X24.8901 Y33.9812 
G01 X24.9281 Y34.0193 
G01 X24.9488 Y34.0691 
G01 X24.9488 Y34.1229 
G01 X24.9281 Y34.1727 
G01 X24.8901 Y34.2108 
G01 X22.9610 Y36.1398 
G01 X22.8642 Y36.3735 
G01 X22.8642 Y37.2557 
G01 X22.8436 Y37.3055 
G01 X22.8055 Y37.3436 
G01 X22.7557 Y37.3642 
G01 X17.1085 Y37.3642 
G01 X17.0979 Y37.3667 
G01 X17.0818 Y37.3642 
G01 X17.0656 Y37.3642 
G01 X17.0555 Y37.3600 
G01 X17.0447 Y37.3583 
G01 X17.0308 Y37.3498 
G01 X17.0158 Y37.3436 
G01 X17.0081 Y37.3359 
G01 X16.9988 Y37.3302 
G01 X16.9892 Y37.3170 
G01 X16.9777 Y37.3055 
G01 X16.9735 Y37.2954 
G01 X16.9671 Y37.2866 
G01 X16.9633 Y37.2708 
G01 X16.9571 Y37.2557 
G01 X16.9571 Y37.2448 
G01 X16.9545 Y37.2342 
G01 X16.9571 Y37.2181 
G01 X16.9571 Y37.2019 
G01 X16.9613 Y37.1918 
G01 X16.9630 Y37.1810 
G01 X16.9715 Y37.1671 
G01 X16.9777 Y37.1521 
G01 X16.9854 Y37.1444 
G01 X16.9911 Y37.1351 
G01 X17.0043 Y37.1255 
G01 X17.0158 Y37.1140 
G01 X17.0259 Y37.1098 
G01 X17.1228 Y37.0395 
G01 X17.2275 Y36.9348 
G01 X17.3145 Y36.8150 
G01 X17.3817 Y36.6831 
G01 X17.4274 Y36.5423 
G01 X17.4506 Y36.3960 
G01 X17.4506 Y35.8744 
G01 X17.4377 Y35.8874 
G01 X17.4242 Y35.9046 
G01 X17.3971 Y35.9279 
G01 X17.3719 Y35.9532 
G01 X17.3537 Y35.9653 
G01 X17.3474 Y35.9707 
G01 X17.3474 Y36.4045 
G01 X17.3152 Y36.5663 
G01 X17.2521 Y36.7187 
G01 X17.1605 Y36.8558 
G01 X17.0438 Y36.9725 
G01 X16.9067 Y37.0641 
G01 X16.7543 Y37.1272 
G01 X16.5925 Y37.1594 
G01 X16.4275 Y37.1594 
G01 X16.2657 Y37.1272 
G01 X16.1133 Y37.0641 
G01 X15.9762 Y36.9725 
G01 X15.8595 Y36.8558 
G01 X15.7679 Y36.7187 
G01 X15.7048 Y36.5663 
G01 X15.6726 Y36.4045 
G01 X15.6726 Y35.7554 
G01 X15.5694 Y35.7554 
G01 X15.5694 Y36.3703 
G01 X15.5488 Y36.4201 
G01 X15.5107 Y36.4581 
G01 X15.4609 Y36.4788 
G01 X15.4071 Y36.4788 
G01 X15.3573 Y36.4581 
G01 X15.3192 Y36.4201 
G01 X14.8804 Y35.9813 
G01 X14.8598 Y35.9315 
G01 X14.8598 Y34.6210 
G01 X14.7243 Y34.2940 
G01 X14.4740 Y34.0437 
G01 X14.1470 Y33.9082 
G01 X13.7930 Y33.9082 
G01 X13.4660 Y34.0437 
G01 X13.2157 Y34.2940 
G01 X13.0802 Y34.6210 
G01 X13.0802 Y36.4990 
G01 X13.2157 Y36.8260 
G01 X13.4660 Y37.0763 
G01 X13.7930 Y37.2118 
G01 X14.1470 Y37.2118 
G01 X14.1557 Y37.2082 
G01 X14.1807 Y37.1979 
G01 X14.2054 Y37.1876 
G01 X14.2593 Y37.1876 
G01 X14.3091 Y37.2082 
G01 X14.3465 Y37.2457 
G01 X15.4610 Y38.3601 
G01 X15.6398 Y38.5390 
G01 X15.8735 Y38.6358 
G01 X23.6265 Y38.6358 
G01 X23.8601 Y38.5390 
G01 X24.0390 Y38.3601 
G01 X24.1358 Y38.1265 
G01 X24.1358 Y36.7925 
G01 X24.1564 Y36.7427 
G01 X24.1945 Y36.7047 
G01 X26.8601 Y34.0390 
G01 X27.0390 Y33.8601 
G01 X27.1358 Y33.6265 
G01 X27.1358 Y24.3735 
G01 X27.0390 Y24.1398 
G01 X24.5390 Y21.6398 
G01 X24.4099 Y21.5108 
G01 X24.3734 Y21.4743 
G01 X24.3512 Y21.4229 
G01 X24.3512 Y21.3691 
G01 X24.3718 Y21.3193 
G01 X24.4093 Y21.2818 
G01 X24.4426 Y21.2677 
G01 X24.3323 Y21.1574 
G01 X23.2855 Y21.1574 
G01 X23.1237 Y21.1252 
G01 X22.9713 Y21.0621 
G01 X22.8342 Y20.9704 
G01 X22.7175 Y20.8538 
G01 X22.6259 Y20.7167 
G01 X22.5628 Y20.5643 
G01 X22.5531 Y20.5154 
G01 X22.4466 Y20.5154 
G01 X22.4506 Y20.5403 
G01 X22.4963 Y20.6811 
G01 X22.5635 Y20.8130 
G01 X22.6505 Y20.9328 
G01 X22.7552 Y21.0375 
G01 X22.8549 Y21.1098 
G01 X22.8650 Y21.1140 
G01 X22.8765 Y21.1255 
G01 X22.8896 Y21.1351 
G01 X22.8953 Y21.1444 
G01 X22.9030 Y21.1521 
G01 X22.9093 Y21.1671 
G01 X22.9178 Y21.1810 
G01 X22.9195 Y21.1918 
G01 X22.9237 Y21.2019 
G01 X22.9237 Y21.2181 
G01 X22.9262 Y21.2342 
G01 X22.9237 Y21.2448 
G01 X22.9237 Y21.2557 
G01 X22.9174 Y21.2708 
G01 X22.9136 Y21.2866 
G01 X22.9072 Y21.2954 
G01 X22.9030 Y21.3055 
G01 X22.8915 Y21.3170 
G01 X22.8820 Y21.3302 
G01 X22.8727 Y21.3359 
G01 X22.8650 Y21.3436 
G01 X22.8499 Y21.3498 
G01 X22.8360 Y21.3583 
G01 X22.8253 Y21.3600 
G01 X22.8152 Y21.3642 
G01 X22.7989 Y21.3642 
G01 X22.7828 Y21.3667 
G01 X22.7722 Y21.3642 
G01 X16.2443 Y21.3642 
G01 X16.1945 Y21.3436 
G01 X16.1564 Y21.3055 
G01 X16.1358 Y21.2557 
G01 X16.1358 Y11.7162 
G01 X16.1564 Y11.6664 
G01 X16.2593 Y11.5636 
G01 X16.3596 Y11.3213 
G01 X16.3784 Y11.2760 
G01 X16.3802 Y11.2716 
G01 X16.4183 Y11.2335 
G01 X16.4681 Y11.2129 
G01 X16.5219 Y11.2129 
G01 X16.5703 Y11.2329 
G01 X16.6098 Y11.2716 
G01 X16.6304 Y11.3213 
G01 X16.7307 Y11.5636 
G01 X17.0739 Y11.9068 
G01 X17.3055 Y12.0027 
G01 X17.3436 Y12.0408 
G01 X17.3642 Y12.0905 
G01 X17.3642 Y15.1265 
G01 X17.4610 Y15.3601 
G01 X17.6398 Y15.5390 
G01 X17.8735 Y15.6358 
G01 X22.5053 Y15.6358 
G01 X22.5195 Y15.6417 
G01 X22.5551 Y15.6564 
G01 X22.5931 Y15.6945 
G01 X22.6137 Y15.7440 
G01 X22.8640 Y15.9943 
G01 X23.1910 Y16.1298 
G01 X25.0690 Y16.1298 
G01 X25.3960 Y15.9943 
G01 X25.6463 Y15.7440 
G01 X25.7818 Y15.4170 
G01 X25.7818 Y15.0630 
G01 X25.6463 Y14.7360 
G01 X25.3960 Y14.4857 
G01 X25.0690 Y14.3502 
G01 X23.1910 Y14.3502 
G01 X23.0981 Y14.3887 
G01 X23.0885 Y14.3955 
G01 X23.0735 Y14.3989 
G01 X23.0593 Y14.4048 
G01 X23.0475 Y14.4048 
G01 X23.0360 Y14.4074 
G01 X23.0208 Y14.4048 
G01 X23.0054 Y14.4048 
G01 X22.9945 Y14.4003 
G01 X22.9339 Y14.3899 
G01 X22.9184 Y14.3899 
G01 X22.9076 Y14.3854 
G01 X22.8959 Y14.3834 
G01 X22.8829 Y14.3752 
G01 X22.8565 Y14.3642 
G01 X22.8108 Y14.3642 
G01 X22.7993 Y14.3668 
G01 X22.7841 Y14.3642 
G01 X22.7687 Y14.3642 
G01 X22.7578 Y14.3597 
G01 X22.7128 Y14.3520 
G01 X22.6849 Y14.3583 
G01 X22.6706 Y14.3642 
G01 X22.6588 Y14.3642 
G01 X22.6473 Y14.3668 
G01 X22.6322 Y14.3642 
G01 X18.7443 Y14.3642 
G01 X18.6945 Y14.3436 
G01 X18.6564 Y14.3055 
G01 X18.6358 Y14.2557 
G01 X18.6358 Y11.7562 
G01 X18.6564 Y11.7064 
G01 X18.6945 Y11.6683 
G01 X18.7993 Y11.5636 
G01 X18.9850 Y11.1152 
G01 X18.9850 Y10.6298 
G01 X18.7993 Y10.1814 
G01 X18.4561 Y9.8382 
G01 X18.2138 Y9.7379 
G01 X18.1641 Y9.7173 
G01 X18.1260 Y9.6792 
G01 X18.1054 Y9.6296 
G01 X18.1054 Y9.5756 
G01 X18.1260 Y9.5258 
G01 X18.1641 Y9.4877 
G01 X18.4561 Y9.3668 
G01 X18.7993 Y9.0236 
G01 X18.9850 Y8.5752 
G01 X18.9850 Y8.0898 
G01 X18.7993 Y7.6414 
G01 X18.4561 Y7.2982 
G01 X18.0077 Y7.1125 
G01 X17.7443 Y7.1125 
G01 X17.6945 Y7.0919 
G01 X17.6564 Y7.0538 
G01 X17.6358 Y7.0040 
G01 X17.6358 Y2.8735 
G01 X17.5390 Y2.6398 
G01 X17.3602 Y2.4610 
G01 X17.3221 Y2.4229 
G01 X16.5390 Y1.6399 
G01 X16.3601 Y1.4610 
G01 X16.1265 Y1.3642 
G01 X12.3735 Y1.3642 
G01 X12.1398 Y1.4610 
G01 X11.9610 Y1.6398 
G01 X11.8642 Y1.8735 
G01 X11.8642 Y1.9457 
G01 X11.8436 Y1.9955 
G01 X11.8055 Y2.0336 
G01 X11.7557 Y2.0542 
G01 X2.6815 Y2.0542 
G01 X2.6546 Y2.0542 
G01 X2.6287 Y2.0542 
G01 X2.5336 Y2.0524 
G01 X2.5294 Y2.0542 
G01 X2.5228 Y2.0545 
G01 X2.5163 Y2.0572 
G01 X2.4897 Y2.0572 
G01 X2.4625 Y2.0572 
G01 X2.4380 Y2.0471 
G01 X2.4127 Y2.0366 
G01 X2.3875 Y2.0114 
G01 X2.3746 Y1.9985 
G01 X2.3643 Y1.9736 
G01 X2.3540 Y1.9487 
G01 X2.3540 Y1.9221 
G01 X2.3540 Y1.8949 
G01 X2.3630 Y1.8731 
G01 X2.3746 Y1.8451 
G01 X2.5106 Y1.5168 
G01 X2.5106 Y1.0491 
G01 X2.5312 Y0.9993 
G01 X2.5693 Y0.9612 
G01 X2.6191 Y0.9406 
G01 X25.3209 Y0.9406 
G01 X25.3707 Y0.9612 
G01 X25.4088 Y0.9993 
G01 X25.4294 Y1.0491 
G01 X25.4294 Y1.5168 
G01 X25.4670 Y1.6074 
G01 X25.4766 Y1.6307 
G01 X25.4876 Y1.6572 
G01 X25.4876 Y1.7111 
G01 X25.4670 Y1.7608 
G01 X25.4295 Y1.7983 
G01 X25.4003 Y1.8107 
G01 X25.3791 Y1.8195 
G01 X21.7493 Y1.8195 
G01 X21.7294 Y1.8227 
G01 X21.7103 Y1.8289 
G01 X21.6923 Y1.8380 
G01 X21.6761 Y1.8498 
G01 X21.6618 Y1.8641 
G01 X21.6500 Y1.8803 
G01 X21.6409 Y1.8983 
G01 X21.6347 Y1.9174 
G01 X21.6315 Y1.9373 
G01 X21.6315 Y13.7020 
G01 X21.6347 Y13.7219 
G01 X21.6409 Y13.7410 
G01 X21.6500 Y13.7590 
G01 X21.6618 Y13.7752 
G01 X21.6761 Y13.7895 
G01 X21.6923 Y13.8013 
G01 X21.7103 Y13.8104 
G01 X21.7294 Y13.8166 
G01 X21.7493 Y13.8198 
G01 X24.7327 Y13.8198 
G01 X24.7526 Y13.8166 
G01 X24.7717 Y13.8104 
G01 X24.7896 Y13.8013 
G01 X24.8059 Y13.7895 
G01 X24.8201 Y13.7752 
G01 X24.8320 Y13.7590 
G01 X24.8411 Y13.7410 
G01 X24.8473 Y13.7219 
G01 X24.8505 Y13.7020 
G01 X24.8505 Y8.1889 
G01 X24.8711 Y8.1391 
G01 X24.9092 Y8.1010 
G01 X24.9589 Y8.0804 
G01 X27.2727 Y8.0804 
G01 X27.2926 Y8.0773 
G01 X27.3117 Y8.0711 
G01 X27.3296 Y8.0619 
G01 X27.3459 Y8.0501 
G01 X27.3602 Y8.0359 
G01 X27.3720 Y8.0196 
G01 X27.3811 Y8.0017 
G01 X27.3873 Y7.9826 
G01 X27.3905 Y7.9627 
G01 X27.3905 Y2.3332 
G01 X27.4111 Y2.2834 
G01 X27.4492 Y2.2453 
G01 X27.7217 Y1.9727 
G01 X27.8252 Y1.7229 
G01 X27.8633 Y1.6848 
G01 X27.9131 Y1.6642 
G01 X27.9669 Y1.6642 
G01 X28.0167 Y1.6848 
G01 X28.0548 Y1.7229 
G01 X28.0754 Y1.7727 
G01 X28.0754 Y23.2504 
G01 X28.3719 Y23.5468 
G01 X28.4532 Y23.6281 
G01 X28.5170 Y23.7237 
G01 X28.5610 Y23.8298 
G01 X28.5834 Y23.9425 
G01 X28.5834 Y35.5575 
G01 X28.5610 Y35.6702 
G01 X28.5170 Y35.7763 
G01 X28.4532 Y35.8719 
G01 X28.0754 Y36.2496 
G01 X28.0754 Y38.8673 
G01 X28.0548 Y38.9171 
G01 X28.0167 Y38.9552 
G01 X27.9669 Y38.9758 
G01 X27.9131 Y38.9758 
G01 X27.8633 Y38.9552 
G01 X27.8252 Y38.9171 
G01 X27.7217 Y38.6673 
G01 X27.3727 Y38.3183 
G01 X26.9168 Y38.1294 
G01 X26.4232 Y38.1294 
G01 X26.0347 Y38.2903 
G01 X25.5903 Y38.7347 
G01 X25.4294 Y39.1232 
G01 X25.4294 Y39.6168 
G01 X25.6183 Y40.0727 
G01 X25.9673 Y40.4217 
G01 X26.2171 Y40.5252 
G01 X26.2552 Y40.5633 
G01 X26.2758 Y40.6131 
G01 X26.2758 Y40.6669 
G01 X26.2552 Y40.7167 
G01 X26.2171 Y40.7548 
G01 X26.1673 Y40.7754 
G01 X1.7727 Y40.7754 
G01 X1.7229 Y40.7548 
G01 X1.6848 Y40.7167 
G01 X1.6642 Y40.6669 
G01 X1.6642 Y40.6131 
G01 X1.6848 Y40.5633 
G01 X1.7229 Y40.5252 
G01 X1.9727 Y40.4217 
G01 X2.3217 Y40.0727 
G01 X2.5106 Y39.6168 
G01 X2.5106 Y39.1232 
G01 X2.3217 Y38.6673 
G01 X1.9727 Y38.3183 
G01 X1.5168 Y38.1294 
G01 X1.0491 Y38.1294 
G01 X0.9993 Y38.1088 
G01 X0.9612 Y38.0707 
G01 X0.9406 Y38.0209 
G01 X0.9406 Y2.6191 
G01 X0.9612 Y2.5693 
G01 X0.9993 Y2.5312 
G01 X1.0491 Y2.5106 
G01 X1.5168 Y2.5106 
G01 X1.8154 Y2.3869 
G01 X1.8403 Y2.3766 
G01 X1.8642 Y2.3667 
G01 X1.8922 Y2.3667 
G01 X1.9181 Y2.3667 
G01 X1.9439 Y2.3773 
G01 X1.9679 Y2.3873 
G01 X1.9876 Y2.4070 
G01 X2.0060 Y2.4254 
G01 X2.0166 Y2.4512 
G01 X2.0266 Y2.4751 
G01 X2.0266 Y2.5031 
G01 X2.0266 Y2.5290 
G01 X2.0164 Y2.5535 
G01 X2.0164 Y2.5582 
G01 X2.0142 Y2.5643 
G01 X2.0142 Y2.6584 
G01 X2.0142 Y2.6854 
G01 X2.0142 Y2.7113 
G01 X1.8664 Y12.8422 
G01 X1.8664 Y12.8682 
G01 X1.8642 Y12.8743 
G01 X1.8642 Y12.9685 
G01 X1.8642 Y12.9954 
G01 X1.8642 Y13.0213 
G01 X1.8624 Y13.1164 
G01 X1.8642 Y13.1206 
G01 X1.8642 Y13.1485 
G01 X1.8642 Y26.6265 
G01 X1.9610 Y26.8601 
G01 X2.1398 Y27.0390 
G01 X2.3735 Y27.1358 
G01 X3.4963 Y27.1358 
G01 X3.5446 Y27.1558 
G01 X3.5841 Y27.1945 
G01 X3.8140 Y27.4243 
G01 X4.1410 Y27.5598 
G01 X6.0190 Y27.5598 
G01 X6.3460 Y27.4243 
G01 X6.5963 Y27.1740 
G01 X6.6058 Y27.1512 
G01 X6.6140 Y27.1313 
G01 X6.6515 Y27.0938 
G01 X6.6723 Y27.0849 
G01 X6.7019 Y27.0726 
G01 X6.7557 Y27.0726 
G01 X6.7899 Y27.0868 
G01 X6.8055 Y27.0932 
G01 X6.8430 Y27.1307 
G01 X6.8519 Y27.1515 
G01 X6.8642 Y27.1811 
G01 X6.8642 Y28.5840 
G01 X6.8667 Y28.5946 
G01 X6.8642 Y28.6106 
G01 X6.8642 Y28.6269 
G01 X6.8600 Y28.6370 
G01 X6.8583 Y28.6478 
G01 X6.8498 Y28.6616 
G01 X6.8436 Y28.6767 
G01 X6.8359 Y28.6844 
G01 X6.8302 Y28.6937 
G01 X6.8170 Y28.7033 
G01 X6.8055 Y28.7148 
G01 X6.7954 Y28.7189 
G01 X6.7866 Y28.7254 
G01 X6.7708 Y28.7292 
G01 X6.7557 Y28.7354 
G01 X6.7448 Y28.7354 
G01 X6.7342 Y28.7379 
G01 X6.7181 Y28.7354 
G01 X6.7019 Y28.7354 
G01 X6.6918 Y28.7312 
G01 X6.6810 Y28.7295 
G01 X6.6671 Y28.7210 
G01 X6.6521 Y28.7148 
G01 X6.6444 Y28.7070 
G01 X6.6351 Y28.7014 
G01 X6.6255 Y28.6882 
G01 X6.6140 Y28.6767 
G01 X6.6098 Y28.6666 
G01 X6.5594 Y28.5972 
G01 X6.4548 Y28.4925 
G01 X6.3350 Y28.4055 
G01 X6.2031 Y28.3383 
G01 X6.0623 Y28.2926 
G01 X5.9160 Y28.2694 
G01 X5.2754 Y28.2694 
G01 X5.2754 Y28.3726 
G01 X5.9245 Y28.3726 
G01 X6.0863 Y28.4048 
G01 X6.2387 Y28.4679 
G01 X6.3758 Y28.5595 
G01 X6.4925 Y28.6762 
G01 X6.5841 Y28.8133 
G01 X6.6472 Y28.9657 
G01 X6.6794 Y29.1275 
G01 X6.6794 Y29.2925 
G01 X6.6472 Y29.4543 
G01 X6.5841 Y29.6067 
G01 X6.4925 Y29.7438 
G01 X6.3758 Y29.8605 
G01 X6.2387 Y29.9521 
G01 X6.0863 Y30.0152 
G01 X5.9245 Y30.0474 
G01 X5.2777 Y30.0474 
G01 X5.2754 Y30.1506 
G01 X5.9160 Y30.1506 
G01 X6.0623 Y30.1274 
G01 X6.2031 Y30.0817 
G01 X6.3350 Y30.0145 
G01 X6.4548 Y29.9275 
G01 X6.5594 Y29.8228 
G01 X6.6098 Y29.7534 
G01 X6.6140 Y29.7433 
G01 X6.6255 Y29.7318 
G01 X6.6351 Y29.7186 
G01 X6.6444 Y29.7129 
G01 X6.6521 Y29.7052 
G01 X6.6671 Y29.6990 
G01 X6.6810 Y29.6905 
G01 X6.6918 Y29.6888 
G01 X6.7019 Y29.6846 
G01 X6.7181 Y29.6846 
G01 X6.7342 Y29.6821 
G01 X6.7448 Y29.6846 
G01 X6.7557 Y29.6846 
G01 X6.7708 Y29.6908 
G01 X6.7866 Y29.6946 
G01 X6.7954 Y29.7011 
G01 X6.8055 Y29.7052 
G01 X6.8170 Y29.7167 
G01 X6.8302 Y29.7263 
G01 X6.8359 Y29.7356 
G01 X6.8436 Y29.7433 
G01 X6.8498 Y29.7584 
G01 X6.8583 Y29.7722 
G01 X6.8600 Y29.7830 
G01 X6.8642 Y29.7931 
G01 X6.8642 Y29.8094 
G01 X6.8667 Y29.8254 
G01 X6.8642 Y29.8360 
G01 X6.8642 Y32.2075 
G01 X6.8436 Y32.2573 
G01 X6.8055 Y32.2953 
G01 X5.2133 Y33.8876 
G01 X5.1635 Y33.9082 
G01 X4.9030 Y33.9082 
G01 X4.5760 Y34.0437 
G01 X4.3257 Y34.2940 
G01 X4.1902 Y34.6210 
G01 X4.1902 Y36.4990 
G01 X4.3257 Y36.8260 
G01 X4.5760 Y37.0763 
G01 X4.9030 Y37.2118 
G01 X5.2570 Y37.2118 
G01 X5.5840 Y37.0763 
G01 X5.8343 Y36.8260 
G01 X5.9698 Y36.4990 
G01 X5.9698 Y35.9585 
G01 X5.9904 Y35.9087 
G01 X6.0390 Y35.8601 
G01 X6.0465 Y35.8420 
G01 X6.0508 Y35.8252 
G01 X6.0567 Y35.8173 
G01 X6.0605 Y35.8082 
G01 X6.0727 Y35.7960 
G01 X6.0845 Y35.7803 
G01 X6.0981 Y35.7274 
G01 X6.0981 Y35.7176 
G01 X6.1047 Y35.7016 
G01 X6.1090 Y35.6848 
G01 X6.1149 Y35.6769 
G01 X6.1358 Y35.6265 
G01 X6.1358 Y35.6068 
G01 X6.1334 Y35.5897 
G01 X6.1358 Y35.5802 
G01 X6.1358 Y35.5703 
G01 X6.1424 Y35.5543 
G01 X6.1473 Y35.5353 
G01 X6.1396 Y35.4812 
G01 X6.1358 Y35.4721 
G01 X6.1358 Y35.4548 
G01 X6.1334 Y35.4377 
G01 X6.1358 Y35.4281 
G01 X6.1358 Y34.7925 
G01 X6.1564 Y34.7427 
G01 X6.1945 Y34.7047 
G01 X6.4835 Y34.4157 
G01 X6.4975 Y34.3993 
G01 X6.5024 Y34.3968 
G01 X6.5063 Y34.3929 
G01 X6.5262 Y34.3846 
G01 X6.5455 Y34.3748 
G01 X6.5510 Y34.3744 
G01 X6.5560 Y34.3723 
G01 X6.5777 Y34.3723 
G01 X6.5992 Y34.3706 
G01 X6.6044 Y34.3723 
G01 X6.6099 Y34.3723 
G01 X6.6299 Y34.3805 
G01 X6.6504 Y34.3872 
G01 X6.6546 Y34.3908 
G01 X6.6597 Y34.3929 
G01 X6.6749 Y34.4082 
G01 X6.6914 Y34.4222 
G01 X6.6939 Y34.4271 
G01 X6.6977 Y34.4310 
G01 X6.7060 Y34.4510 
G01 X6.7158 Y34.4702 
G01 X6.7163 Y34.4757 
G01 X6.7184 Y34.4807 
G01 X6.7184 Y34.5024 
G01 X6.7201 Y34.5239 
G01 X6.7184 Y34.5291 
G01 X6.7184 Y34.5346 
G01 X6.7101 Y34.5546 
G01 X6.7026 Y34.5777 
G01 X6.6794 Y34.7240 
G01 X6.6794 Y35.3646 
G01 X6.7826 Y35.3646 
G01 X6.7826 Y34.7155 
G01 X6.8148 Y34.5537 
G01 X6.8779 Y34.4013 
G01 X6.9695 Y34.2642 
G01 X7.0862 Y34.1475 
G01 X7.2233 Y34.0559 
G01 X7.3757 Y33.9928 
G01 X7.4246 Y33.9831 
G01 X7.4246 Y33.8766 
G01 X7.3997 Y33.8806 
G01 X7.3766 Y33.8881 
G01 X7.3566 Y33.8964 
G01 X7.3511 Y33.8964 
G01 X7.3459 Y33.8981 
G01 X7.3244 Y33.8964 
G01 X7.3027 Y33.8964 
G01 X7.2977 Y33.8943 
G01 X7.2922 Y33.8938 
G01 X7.2730 Y33.8840 
G01 X7.2530 Y33.8757 
G01 X7.2491 Y33.8719 
G01 X7.2442 Y33.8694 
G01 X7.2302 Y33.8529 
G01 X7.2149 Y33.8377 
G01 X7.2128 Y33.8326 
G01 X7.2092 Y33.8284 
G01 X7.2026 Y33.8079 
G01 X7.1943 Y33.7879 
G01 X7.1943 Y33.7824 
G01 X7.1926 Y33.7772 
G01 X7.1943 Y33.7557 
G01 X7.1943 Y33.7340 
G01 X7.1964 Y33.7290 
G01 X7.1968 Y33.7235 
G01 X7.2066 Y33.7042 
G01 X7.2149 Y33.6843 
G01 X7.2188 Y33.6804 
G01 X7.2213 Y33.6755 
G01 X7.2377 Y33.6615 
G01 X8.0390 Y32.8601 
G01 X8.1358 Y32.6265 
G01 X8.1358 Y25.0095 
G01 X8.1564 Y24.9597 
G01 X8.1945 Y24.9216 
G01 X8.5860 Y24.5301 
G01 X8.5860 Y23.7299 
G01 X8.0201 Y23.1640 
G01 X7.2199 Y23.1640 
G01 X6.7919 Y23.5920 
G01 X6.7619 Y23.6220 
G01 X6.7538 Y23.6301 
G01 X6.7041 Y23.6507 
G01 X6.6502 Y23.6507 
G01 X6.6004 Y23.6301 
G01 X6.5623 Y23.5920 
G01 X6.3460 Y23.3757 
G01 X6.0190 Y23.2402 
G01 X4.1410 Y23.2402 
G01 X3.8140 Y23.3757 
G01 X3.5637 Y23.6260 
G01 X3.4282 Y23.9530 
G01 X3.4282 Y24.3070 
G01 X3.5637 Y24.6340 
G01 X3.8140 Y24.8843 
G01 X4.1410 Y25.0198 
G01 X5.0668 Y25.0198 
G01 X5.0935 Y25.0198 
G01 X5.1109 Y25.0270 
G01 X5.1343 Y25.0367 
G01 X5.1557 Y25.0440 
G01 X5.1590 Y25.0469 
G01 X5.1631 Y25.0486 
G01 X5.1754 Y25.0610 
G01 X5.2499 Y25.0864 
G01 X5.2543 Y25.0864 
G01 X5.2753 Y25.0951 
G01 X5.2967 Y25.1024 
G01 X5.3000 Y25.1053 
G01 X5.3727 Y25.1355 
G01 X5.3901 Y25.1344 
G01 X5.3943 Y25.1358 
G01 X5.3987 Y25.1358 
G01 X5.4148 Y25.1425 
G01 X5.4934 Y25.1375 
G01 X5.4975 Y25.1358 
G01 X5.5201 Y25.1358 
G01 X5.5427 Y25.1344 
G01 X5.5469 Y25.1358 
G01 X6.7557 Y25.1358 
G01 X6.8055 Y25.1564 
G01 X6.8436 Y25.1945 
G01 X6.8642 Y25.2443 
G01 X6.8642 Y26.1589 
G01 X6.8523 Y26.1876 
G01 X6.8436 Y26.2087 
G01 X6.8055 Y26.2467 
G01 X6.7919 Y26.2524 
G01 X6.7557 Y26.2674 
G01 X6.7019 Y26.2674 
G01 X6.6731 Y26.2554 
G01 X6.6521 Y26.2467 
G01 X6.6140 Y26.2087 
G01 X6.6069 Y26.1914 
G01 X6.5963 Y26.1660 
G01 X6.3460 Y25.9157 
G01 X6.0190 Y25.7802 
G01 X4.1410 Y25.7802 
G01 X3.9880 Y25.8436 
G01 X3.9853 Y25.8447 
G01 X3.9382 Y25.8642 
G01 X3.2443 Y25.8642 
G01 X3.1945 Y25.8436 
G01 X3.1564 Y25.8055 
G01 X3.1358 Y25.7557 
G01 X3.1358 Y13.0316 
G01 X3.1358 Y13.0046 
G01 X3.1358 Y12.9787 
G01 X3.2747 Y3.4602 
G01 X3.2747 Y3.4343 
G01 X3.2854 Y3.4084 
G01 X3.2953 Y3.3845 
G01 X3.3150 Y3.3648 
G01 X3.3334 Y3.3464 
G01 X3.3592 Y3.3357 
G01 X3.3831 Y3.3258 
G01 X3.4111 Y3.3258 
G01 X11.7557 Y3.3258 
G01 X11.8055 Y3.3464 
G01 X11.8436 Y3.3845 
G01 X11.8642 Y3.4343 
G01 X11.8642 Y7.3988 
G01 X11.8436 Y7.4486 
G01 X11.6507 Y7.6414 
G01 X11.5504 Y7.8837 
G01 X11.5298 Y7.9334 
G01 X11.4923 Y7.9709 
G01 X11.4419 Y7.9921 
G01 X11.3881 Y7.9921 
G01 X11.3383 Y7.9715 
G01 X11.3008 Y7.9340 
G01 X11.2796 Y7.8837 
G01 X11.1793 Y7.6414 
G01 X10.8361 Y7.2982 
G01 X10.3877 Y7.1125 
G01 X9.9023 Y7.1125 
G01 X9.4539 Y7.2982 
G01 X9.1107 Y7.6414 
G01 X8.9250 Y8.0898 
G01 X8.9250 Y8.5752 
G01 X9.1107 Y9.0236 
G01 X9.4539 Y9.3668 
G01 X9.6449 Y9.4459 
G01 X9.6654 Y9.4525 
G01 X9.6696 Y9.4561 
G01 X9.6747 Y9.4582 
G01 X9.6900 Y9.4735 
G01 X9.7064 Y9.4875 
G01 X9.7089 Y9.4924 
G01 X9.7128 Y9.4963 
G01 X9.7211 Y9.5163 
G01 X9.7309 Y9.5355 
G01 X9.7313 Y9.5410 
G01 X9.7334 Y9.5461 
G01 X9.7334 Y9.5677 
G01 X9.7351 Y9.5892 
G01 X9.7334 Y9.5944 
G01 X9.7334 Y9.5999 
G01 X9.7251 Y9.6199 
G01 X9.7184 Y9.6405 
G01 X9.7149 Y9.6446 
G01 X9.7128 Y9.6497 
G01 X9.6975 Y9.6650 
G01 X9.6835 Y9.6814 
G01 X9.6786 Y9.6839 
G01 X9.6747 Y9.6878 
G01 X9.6547 Y9.6961 
G01 X9.4790 Y9.7856 
G01 X9.3171 Y9.9032 
G01 X9.1757 Y10.0446 
G01 X9.0581 Y10.2065 
G01 X8.9673 Y10.3847 
G01 X8.9055 Y10.5749 
G01 X8.8893 Y10.6771 
G01 X8.9938 Y10.6771 
G01 X9.0061 Y10.5991 
G01 X9.0629 Y10.4243 
G01 X9.1464 Y10.2605 
G01 X9.2544 Y10.1119 
G01 X9.3844 Y9.9819 
G01 X9.5330 Y9.8739 
G01 X9.6968 Y9.7904 
G01 X9.8716 Y9.7337 
G01 X10.0531 Y9.7049 
G01 X10.2369 Y9.7049 
G01 X10.4184 Y9.7337 
G01 X10.5932 Y9.7904 
G01 X10.7570 Y9.8739 
G01 X10.9056 Y9.9819 
G01 X11.0356 Y10.1119 
G01 X11.1436 Y10.2605 
G01 X11.2271 Y10.4243 
G01 X11.2838 Y10.5991 
G01 X11.3126 Y10.7806 
G01 X11.3126 Y10.9644 
G01 X11.2838 Y11.1459 
G01 X11.2271 Y11.3207 
G01 X11.1436 Y11.4845 
G01 X11.0356 Y11.6331 
G01 X10.9056 Y11.7631 
G01 X10.7570 Y11.8711 
G01 X10.5932 Y11.9546 
G01 X10.4184 Y12.0113 
G01 X10.3404 Y12.0237 
G01 X10.3404 Y12.1282 
G01 X10.4426 Y12.1120 
G01 X10.6328 Y12.0502 
G01 X10.8110 Y11.9594 
G01 X10.9729 Y11.8418 
G01 X11.1143 Y11.7004 
G01 X11.2319 Y11.5385 
G01 X11.3214 Y11.3628 
G01 X11.3297 Y11.3428 
G01 X11.3336 Y11.3389 
G01 X11.3361 Y11.3340 
G01 X11.3525 Y11.3200 
G01 X11.3678 Y11.3047 
G01 X11.3729 Y11.3026 
G01 X11.3770 Y11.2991 
G01 X11.3976 Y11.2924 
G01 X11.4176 Y11.2841 
G01 X11.4230 Y11.2841 
G01 X11.4283 Y11.2824 
G01 X11.4498 Y11.2841 
G01 X11.4714 Y11.2841 
G01 X11.4765 Y11.2862 
G01 X11.4820 Y11.2866 
G01 X11.5012 Y11.2964 
G01 X11.5212 Y11.3047 
G01 X11.5251 Y11.3086 
G01 X11.5300 Y11.3111 
G01 X11.5440 Y11.3275 
G01 X11.5593 Y11.3428 
G01 X11.5614 Y11.3479 
G01 X11.5649 Y11.3520 
G01 X11.5716 Y11.3726 
G01 X11.6507 Y11.5636 
G01 X11.9939 Y11.9068 
G01 X12.3055 Y12.0358 
G01 X12.3436 Y12.0739 
G01 X12.3642 Y12.1237 
G01 X12.3642 Y26.1265 
G01 X12.4610 Y26.3601 
G01 X12.6450 Y26.5442 
G01 X12.9527 Y26.8518 
G01 X12.9703 Y26.8679 
G01 X12.9716 Y26.8708 
G01 X12.9789 Y26.8852 
G01 X13.0408 Y26.9417 
G01 X13.0438 Y26.9430 
G01 X13.0607 Y26.9598 
G01 X13.0783 Y26.9759 
G01 X13.0796 Y26.9788 
G01 X13.1389 Y27.0381 
G01 X13.1514 Y27.0426 
G01 X13.1567 Y27.0460 
G01 X13.1660 Y27.0553 
G01 X13.2322 Y27.0793 
G01 X13.2354 Y27.0793 
G01 X13.2574 Y27.0884 
G01 X13.2799 Y27.0965 
G01 X13.2852 Y27.0999 
G01 X13.3021 Y27.1167 
G01 X13.3197 Y27.1328 
G01 X13.3210 Y27.1357 
G01 X13.3244 Y27.1391 
G01 X13.3436 Y27.1583 
G01 X13.3594 Y27.1966 
G01 X13.3642 Y27.2080 
G01 X13.3642 Y27.2353 
G01 X13.3642 Y28.6265 
G01 X13.4610 Y28.8601 
G01 X13.6398 Y29.0390 
G01 X13.8735 Y29.1358 
G01 X19.6265 Y29.1358 
G01 X19.8601 Y29.0390 
G01 X20.0771 Y28.8221 
G01 X20.2427 Y28.6564 
G01 X20.2925 Y28.6358 
G01 X22.7763 Y28.6358 
G01 X22.8260 Y28.6564 
G01 X22.8640 Y28.6943 
G01 X23.1910 Y28.8298 
G01 X25.0690 Y28.8298 
G01 X25.3960 Y28.6943 
G01 X25.6140 Y28.4763 
G01 X25.6476 Y28.4428 
G01 X25.6521 Y28.4383 
G01 X25.7019 Y28.4176 
G01 X25.7557 Y28.4176 
G01 X25.8055 Y28.4383 
G01 X25.8436 Y28.4763 
G01 X25.8642 Y28.5261 
G01 X25.8642 Y29.8939 
G01 X25.8442 Y29.9422 
G01 X25.8055 Y29.9817 
G01 X25.7557 Y30.0023 
G01 X25.7019 Y30.0023 
G01 X25.6535 Y29.9823 
G01 X25.6140 Y29.9437 
G01 X25.3960 Y29.7257 
G01 X25.0690 Y29.5902 
G01 X23.1910 Y29.5902 
G01 X22.8640 Y29.7257 
G01 X22.6137 Y29.9760 
G01 X22.4782 Y30.3030 
G01 X22.4782 Y30.6570 
G01 X22.6137 Y30.9840 
G01 X22.8640 Y31.2343 
G01 X23.1910 Y31.3698 
G01 X25.0690 Y31.3698 
G01 X25.3960 Y31.2343 
G01 X25.6140 Y31.0163 
G01 X25.6476 Y30.9828 
G01 X25.6521 Y30.9783 
G01 X25.7019 Y30.9576 
G01 X25.7557 Y30.9576 
G01 X25.8055 Y30.9783 
G01 X25.8436 Y31.0163 
G01 X25.8642 Y31.0661 
G01 X25.8642 Y32.3251 
G01 X25.8667 Y32.3357 
G01 X25.8642 Y32.3518 
G01 X25.8642 Y32.3681 
G01 X25.8600 Y32.3782 
G01 X25.8583 Y32.3889 
G01 X25.8498 Y32.4028 
G01 X25.8436 Y32.4179 
G01 X25.8359 Y32.4256 
G01 X25.8302 Y32.4349 
G01 X25.8170 Y32.4444 
G01 X25.8055 Y32.4559 
G01 X25.7954 Y32.4601 
G01 X25.7866 Y32.4665 
G01 X25.7708 Y32.4703 
G01 X25.7557 Y32.4766 
G01 X25.7448 Y32.4766 
G01 X25.7342 Y32.4791 
G01 X25.7181 Y32.4766 
G01 X25.7019 Y32.4766 
G01 X25.6918 Y32.4724 
G01 X25.6810 Y32.4707 
G01 X25.6671 Y32.4622 
G01 X25.6521 Y32.4559 
G01 X25.6444 Y32.4482 
G01 X25.6351 Y32.4425 
G01 X25.6255 Y32.4294 
G01 X25.6140 Y32.4179 
G01 X25.6098 Y32.4078 
G01 X25.5048 Y32.3025 
G01 X25.3850 Y32.2155 
G01 X25.2531 Y32.1483 
G01 X25.1123 Y32.1026 
G01 X24.9660 Y32.0794 
G01 X24.3254 Y32.0794 
G01 X24.3254 Y32.1826 
G01 X24.9745 Y32.1826 
G00 Z10.0000 
G00 X16.0774 Y3.4631 
G01 Z-0.1700 F300.00 
G01 X16.0774 Y3.9124 F300.00 
G01 X16.0834 Y3.9425 
G01 X16.0834 Y3.9549 
G01 X16.0853 Y3.9671 
G01 X16.0834 Y4.0123 
G01 X16.0834 Y7.5397 
G01 X16.1156 Y7.5719 
G01 X16.2236 Y7.7205 
G01 X16.3071 Y7.8843 
G01 X16.3638 Y8.0591 
G01 X16.3926 Y8.2406 
G01 X16.3926 Y8.4244 
G01 X16.3638 Y8.6059 
G01 X16.3071 Y8.7807 
G01 X16.2236 Y8.9445 
G01 X16.1156 Y9.0931 
G01 X15.9856 Y9.2231 
G01 X15.8370 Y9.3311 
G01 X15.6732 Y9.4146 
G01 X15.4984 Y9.4713 
G01 X15.3169 Y9.5001 
G01 X15.1331 Y9.5001 
G01 X14.9516 Y9.4713 
G01 X14.7768 Y9.4146 
G01 X14.6130 Y9.3311 
G01 X14.4644 Y9.2231 
G01 X14.3344 Y9.0931 
G01 X14.2264 Y8.9445 
G01 X14.1429 Y8.7807 
G01 X14.0861 Y8.6059 
G01 X14.0574 Y8.4244 
G01 X14.0574 Y8.2406 
G01 X14.0861 Y8.0591 
G01 X14.1429 Y7.8843 
G01 X14.2264 Y7.7205 
G01 X14.3344 Y7.5719 
G01 X14.4644 Y7.4419 
G01 X14.6130 Y7.3339 
G01 X14.7768 Y7.2504 
G01 X14.9166 Y7.2050 
G01 X14.9166 Y4.6474 
G01 X14.8931 Y4.6474 
G01 X14.4026 Y4.1569 
G01 X14.4026 Y3.4631 
G01 X14.8931 Y2.9726 
G01 X15.5869 Y2.9726 
G01 X16.0774 Y3.4631 
G00 Z10.0000 
G00 X19.3548 Y27.4058 
G01 Z-0.1700 F300.00 
G01 X18.7452 Y27.4058 F300.00 
G01 X18.3142 Y26.9748 
G01 X18.3142 Y26.3652 
G01 X18.4666 Y26.2128 
G01 X18.4666 Y24.7134 
G01 X15.9486 Y24.7134 
G01 X15.6184 Y25.0436 
G01 X14.8616 Y25.0436 
G01 X14.3264 Y24.5084 
G01 X14.3264 Y23.7516 
G01 X14.8616 Y23.2164 
G01 X15.6184 Y23.2164 
G01 X15.9486 Y23.5466 
G01 X19.1075 Y23.5466 
G01 X19.2202 Y23.5690 
G01 X19.3263 Y23.6130 
G01 X19.4219 Y23.6768 
G01 X19.5032 Y23.7581 
G01 X19.5670 Y23.8537 
G01 X19.6110 Y23.9598 
G01 X19.6334 Y24.0725 
G01 X19.6334 Y25.9166 
G01 X22.2583 Y25.9166 
G01 X22.5575 Y25.6175 
G01 X22.5306 Y25.4825 
G01 X22.5306 Y25.3175 
G01 X22.5628 Y25.1557 
G01 X22.6259 Y25.0033 
G01 X22.7175 Y24.8662 
G01 X22.8342 Y24.7495 
G01 X22.9713 Y24.6579 
G01 X23.1237 Y24.5948 
G01 X23.2855 Y24.5626 
G01 X23.6123 Y24.5626 
G01 X23.6281 Y24.5468 
G01 X23.6473 Y24.5341 
G01 X23.6648 Y24.5191 
G01 X23.6949 Y24.5022 
G01 X23.7237 Y24.4830 
G01 X23.7449 Y24.4742 
G01 X23.7650 Y24.4629 
G01 X23.7979 Y24.4523 
G01 X23.8298 Y24.4390 
G01 X23.8524 Y24.4345 
G01 X23.8743 Y24.4274 
G01 X23.9086 Y24.4233 
G01 X23.9425 Y24.4166 
G01 X23.9656 Y24.4166 
G01 X23.9884 Y24.4139 
G01 X24.0229 Y24.4166 
G01 X24.0575 Y24.4166 
G01 X24.0801 Y24.4211 
G01 X24.1030 Y24.4229 
G01 X24.1362 Y24.4323 
G01 X24.1702 Y24.4390 
G01 X24.1915 Y24.4478 
G01 X24.2136 Y24.4541 
G01 X24.2444 Y24.4698 
G01 X24.2763 Y24.4830 
G01 X24.2955 Y24.4958 
G01 X24.3160 Y24.5063 
G01 X24.3432 Y24.5276 
G01 X24.3719 Y24.5468 
G01 X24.3877 Y24.5626 
G01 X24.9745 Y24.5626 
G01 X25.1363 Y24.5948 
G01 X25.2887 Y24.6579 
G01 X25.4258 Y24.7495 
G01 X25.5425 Y24.8662 
G01 X25.6341 Y25.0033 
G01 X25.6972 Y25.1557 
G01 X25.7294 Y25.3175 
G01 X25.7294 Y25.4825 
G01 X25.6972 Y25.6443 
G01 X25.6341 Y25.7967 
G01 X25.5425 Y25.9338 
G01 X25.4258 Y26.0505 
G01 X25.2887 Y26.1421 
G01 X25.1363 Y26.2052 
G01 X24.9745 Y26.2374 
G01 X23.5877 Y26.2374 
G01 X22.8719 Y26.9532 
G01 X22.7763 Y27.0170 
G01 X22.6702 Y27.0610 
G01 X22.5575 Y27.0834 
G01 X19.6772 Y27.0834 
G01 X19.3548 Y27.4058 
G00 Z10.0000 
G00 X18.9326 Y10.7806 
G01 Z-0.1700 F300.00 
G01 X18.9326 Y10.9644 F300.00 
G01 X18.9038 Y11.1459 
G01 X18.8471 Y11.3207 
G01 X18.7636 Y11.4845 
G01 X18.6556 Y11.6331 
G01 X18.5834 Y11.7053 
G01 X18.5834 Y14.4166 
G01 X22.7222 Y14.4166 
G01 X22.7719 Y14.4153 
G01 X22.7797 Y14.4166 
G01 X22.7875 Y14.4166 
G01 X22.8362 Y14.4263 
G01 X23.0541 Y14.4636 
G01 X23.1237 Y14.4348 
G01 X23.2855 Y14.4026 
G01 X24.9745 Y14.4026 
G01 X25.1363 Y14.4348 
G01 X25.2887 Y14.4979 
G01 X25.4258 Y14.5895 
G01 X25.5425 Y14.7062 
G01 X25.6341 Y14.8433 
G01 X25.6972 Y14.9957 
G01 X25.7294 Y15.1575 
G01 X25.7294 Y15.3225 
G01 X25.6972 Y15.4843 
G01 X25.6341 Y15.6367 
G01 X25.5425 Y15.7738 
G01 X25.4258 Y15.8905 
G01 X25.2887 Y15.9821 
G01 X25.1363 Y16.0452 
G01 X24.9745 Y16.0774 
G01 X23.2855 Y16.0774 
G01 X23.1237 Y16.0452 
G01 X22.9713 Y15.9821 
G01 X22.8342 Y15.8905 
G01 X22.7175 Y15.7738 
G01 X22.6259 Y15.6367 
G01 X22.6038 Y15.5834 
G01 X17.9425 Y15.5834 
G01 X17.8298 Y15.5610 
G01 X17.7237 Y15.5170 
G01 X17.6281 Y15.4532 
G01 X17.5468 Y15.3719 
G01 X17.4830 Y15.2763 
G01 X17.4390 Y15.1702 
G01 X17.4166 Y15.0575 
G01 X17.4166 Y11.9870 
G01 X17.3168 Y11.9546 
G01 X17.1530 Y11.8711 
G01 X17.0044 Y11.7631 
G01 X16.8744 Y11.6331 
G01 X16.7664 Y11.4845 
G01 X16.6829 Y11.3207 
G01 X16.6261 Y11.1459 
G01 X16.5974 Y10.9644 
G01 X16.5974 Y10.7806 
G01 X16.6261 Y10.5991 
G01 X16.6829 Y10.4243 
G01 X16.7664 Y10.2605 
G01 X16.8744 Y10.1119 
G01 X17.0044 Y9.9819 
G01 X17.1530 Y9.8739 
G01 X17.3168 Y9.7904 
G01 X17.4916 Y9.7337 
G01 X17.6731 Y9.7049 
G01 X17.8569 Y9.7049 
G01 X18.0384 Y9.7337 
G01 X18.2132 Y9.7904 
G01 X18.3770 Y9.8739 
G01 X18.5256 Y9.9819 
G01 X18.6556 Y10.1119 
G01 X18.7636 Y10.2605 
G01 X18.8471 Y10.4243 
G01 X18.9038 Y10.5991 
G01 X18.9326 Y10.7806 
G00 Z10.0000 
G00 X16.3926 Y10.7806 
G01 Z-0.1700 F300.00 
G01 X16.3926 Y10.9644 F300.00 
G01 X16.3638 Y11.1459 
G01 X16.3071 Y11.3207 
G01 X16.2236 Y11.4845 
G01 X16.1156 Y11.6331 
G01 X16.0834 Y11.6653 
G01 X16.0834 Y21.4166 
G01 X24.0575 Y21.4166 
G01 X24.1702 Y21.4390 
G01 X24.2763 Y21.4830 
G01 X24.3719 Y21.5468 
G01 X24.4532 Y21.6281 
G01 X26.9532 Y24.1281 
G01 X27.0170 Y24.2237 
G01 X27.0610 Y24.3298 
G01 X27.0834 Y24.4425 
G01 X27.0834 Y33.5575 
G01 X27.0610 Y33.6702 
G01 X27.0170 Y33.7763 
G01 X26.9532 Y33.8719 
G01 X26.8719 Y33.9532 
G01 X24.0834 Y36.7416 
G01 X24.0834 Y38.0575 
G01 X24.0610 Y38.1702 
G01 X24.0170 Y38.2763 
G01 X23.9532 Y38.3719 
G01 X23.8719 Y38.4532 
G01 X23.7763 Y38.5170 
G01 X23.6702 Y38.5610 
G01 X23.5575 Y38.5834 
G01 X15.9425 Y38.5834 
G01 X15.8298 Y38.5610 
G01 X15.7237 Y38.5170 
G01 X15.6281 Y38.4532 
G01 X15.5468 Y38.3719 
G01 X14.2764 Y37.1015 
G01 X14.2143 Y37.1272 
G01 X14.0525 Y37.1594 
G01 X13.8875 Y37.1594 
G01 X13.7257 Y37.1272 
G01 X13.5733 Y37.0641 
G01 X13.4362 Y36.9725 
G01 X13.3195 Y36.8558 
G01 X13.2279 Y36.7187 
G01 X13.1648 Y36.5663 
G01 X13.1326 Y36.4045 
G01 X13.1326 Y34.7155 
G01 X13.1648 Y34.5537 
G01 X13.2279 Y34.4013 
G01 X13.3195 Y34.2642 
G01 X13.4362 Y34.1475 
G01 X13.5733 Y34.0559 
G01 X13.7257 Y33.9928 
G01 X13.8875 Y33.9606 
G01 X14.0525 Y33.9606 
G01 X14.2143 Y33.9928 
G01 X14.3667 Y34.0559 
G01 X14.5038 Y34.1475 
G01 X14.6204 Y34.2642 
G01 X14.7121 Y34.4013 
G01 X14.7752 Y34.5537 
G01 X14.8074 Y34.7155 
G01 X14.8074 Y35.9823 
G01 X16.2416 Y37.4166 
G01 X22.9166 Y37.4166 
G01 X22.9166 Y36.4425 
G01 X22.9390 Y36.3298 
G01 X22.9830 Y36.2237 
G01 X23.0468 Y36.1281 
G01 X25.9166 Y33.2583 
G01 X25.9166 Y24.7416 
G01 X23.7583 Y22.5834 
G01 X15.4425 Y22.5834 
G01 X15.3298 Y22.5610 
G01 X15.2237 Y22.5170 
G01 X15.1281 Y22.4532 
G01 X15.0468 Y22.3719 
G01 X14.9830 Y22.2763 
G01 X14.9390 Y22.1702 
G01 X14.9166 Y22.0575 
G01 X14.9166 Y12.0000 
G01 X14.7768 Y11.9546 
G01 X14.6130 Y11.8711 
G01 X14.4644 Y11.7631 
G01 X14.3344 Y11.6331 
G01 X14.2264 Y11.4845 
G01 X14.1429 Y11.3207 
G01 X14.0861 Y11.1459 
G01 X14.0574 Y10.9644 
G01 X14.0574 Y10.7806 
G01 X14.0861 Y10.5991 
G01 X14.1429 Y10.4243 
G01 X14.2264 Y10.2605 
G01 X14.3344 Y10.1119 
G01 X14.4644 Y9.9819 
G01 X14.6130 Y9.8739 
G01 X14.7768 Y9.7904 
G01 X14.9516 Y9.7337 
G01 X15.1331 Y9.7049 
G01 X15.3169 Y9.7049 
G01 X15.4984 Y9.7337 
G01 X15.6732 Y9.7904 
G01 X15.8370 Y9.8739 
G01 X15.9856 Y9.9819 
G01 X16.1156 Y10.1119 
G01 X16.2236 Y10.2605 
G01 X16.3071 Y10.4243 
G01 X16.3638 Y10.5991 
G01 X16.3926 Y10.7806 
G00 Z10.0000 
G00 X13.8526 Y8.2406 
G01 Z-0.1700 F300.00 
G01 X13.8526 Y8.4244 F300.00 
G01 X13.8238 Y8.6059 
G01 X13.7671 Y8.7807 
G01 X13.6836 Y8.9445 
G01 X13.5756 Y9.0931 
G01 X13.4456 Y9.2231 
G01 X13.2970 Y9.3311 
G01 X13.1332 Y9.4146 
G01 X12.9584 Y9.4713 
G01 X12.7769 Y9.5001 
G01 X12.5931 Y9.5001 
G01 X12.4116 Y9.4713 
G01 X12.2368 Y9.4146 
G01 X12.0730 Y9.3311 
G01 X11.9244 Y9.2231 
G01 X11.7944 Y9.0931 
G01 X11.6864 Y8.9445 
G01 X11.6029 Y8.7807 
G01 X11.5462 Y8.6059 
G01 X11.5174 Y8.4244 
G01 X11.5174 Y8.2406 
G01 X11.5462 Y8.0591 
G01 X11.6029 Y7.8843 
G01 X11.6864 Y7.7205 
G01 X11.7944 Y7.5719 
G01 X11.9166 Y7.4497 
G01 X11.9166 Y3.2734 
G01 X3.2250 Y3.2734 
G01 X3.0834 Y13.0043 
G01 X3.0834 Y25.9166 
G01 X3.9486 Y25.9166 
G01 X4.0737 Y25.8648 
G01 X4.2355 Y25.8326 
G01 X5.9245 Y25.8326 
G01 X6.0863 Y25.8648 
G01 X6.2387 Y25.9279 
G01 X6.3758 Y26.0195 
G01 X6.4925 Y26.1362 
G01 X6.5841 Y26.2733 
G01 X6.6472 Y26.4257 
G01 X6.6794 Y26.5875 
G01 X6.6794 Y26.7525 
G01 X6.6472 Y26.9143 
G01 X6.5841 Y27.0667 
G01 X6.4925 Y27.2038 
G01 X6.3758 Y27.3205 
G01 X6.2387 Y27.4121 
G01 X6.0863 Y27.4752 
G01 X5.9245 Y27.5074 
G01 X4.2355 Y27.5074 
G01 X4.0737 Y27.4752 
G01 X3.9213 Y27.4121 
G01 X3.7842 Y27.3205 
G01 X3.6675 Y27.2038 
G01 X3.5871 Y27.0834 
G01 X2.4425 Y27.0834 
G01 X2.3298 Y27.0610 
G01 X2.2237 Y27.0170 
G01 X2.1281 Y26.9532 
G01 X2.0468 Y26.8719 
G01 X1.9830 Y26.7763 
G01 X1.9390 Y26.6702 
G01 X1.9166 Y26.5575 
G01 X1.9166 Y13.0532 
G01 X1.9158 Y13.0490 
G01 X1.9166 Y12.9957 
G01 X1.9166 Y12.9425 
G01 X1.9174 Y12.9383 
G01 X2.0666 Y2.6857 
G01 X2.0666 Y2.6325 
G01 X2.0674 Y2.6283 
G01 X2.0675 Y2.6241 
G01 X2.0786 Y2.5720 
G01 X2.0890 Y2.5198 
G01 X2.0907 Y2.5159 
G01 X2.0916 Y2.5117 
G01 X2.1126 Y2.4628 
G01 X2.1330 Y2.4137 
G01 X2.1354 Y2.4101 
G01 X2.1371 Y2.4062 
G01 X2.1673 Y2.3623 
G01 X2.1968 Y2.3181 
G01 X2.1999 Y2.3151 
G01 X2.2023 Y2.3115 
G01 X2.2405 Y2.2744 
G01 X2.2781 Y2.2368 
G01 X2.2817 Y2.2345 
G01 X2.2847 Y2.2315 
G01 X2.3294 Y2.2026 
G01 X2.3737 Y2.1730 
G01 X2.3776 Y2.1714 
G01 X2.3812 Y2.1690 
G01 X2.4306 Y2.1494 
G01 X2.4798 Y2.1290 
G01 X2.4840 Y2.1282 
G01 X2.4880 Y2.1266 
G01 X2.5403 Y2.1170 
G01 X2.5925 Y2.1066 
G01 X2.5968 Y2.1066 
G01 X2.6010 Y2.1058 
G01 X2.6543 Y2.1066 
G01 X11.9166 Y2.1066 
G01 X11.9166 Y1.9425 
G01 X11.9390 Y1.8298 
G01 X11.9830 Y1.7237 
G01 X12.0468 Y1.6281 
G01 X12.1281 Y1.5468 
G01 X12.2237 Y1.4830 
G01 X12.3298 Y1.4390 
G01 X12.4425 Y1.4166 
G01 X16.0575 Y1.4166 
G01 X16.1702 Y1.4390 
G01 X16.2763 Y1.4830 
G01 X16.3719 Y1.5468 
G01 X16.4532 Y1.6281 
G01 X17.4532 Y2.6281 
G01 X17.5170 Y2.7237 
G01 X17.5610 Y2.8298 
G01 X17.5834 Y2.9425 
G01 X17.5834 Y7.1791 
G01 X17.6731 Y7.1649 
G01 X17.8569 Y7.1649 
G01 X18.0384 Y7.1937 
G01 X18.2132 Y7.2504 
G01 X18.3770 Y7.3339 
G01 X18.5256 Y7.4419 
G01 X18.6556 Y7.5719 
G01 X18.7636 Y7.7205 
G01 X18.8471 Y7.8843 
G01 X18.9038 Y8.0591 
G01 X18.9326 Y8.2406 
G01 X18.9326 Y8.4244 
G01 X18.9038 Y8.6059 
G01 X18.8471 Y8.7807 
G01 X18.7636 Y8.9445 
G01 X18.6556 Y9.0931 
G01 X18.5256 Y9.2231 
G01 X18.3770 Y9.3311 
G01 X18.2132 Y9.4146 
G01 X18.0384 Y9.4713 
G01 X17.8569 Y9.5001 
G01 X17.6731 Y9.5001 
G01 X17.4916 Y9.4713 
G01 X17.3168 Y9.4146 
G01 X17.1530 Y9.3311 
G01 X17.0044 Y9.2231 
G01 X16.8744 Y9.0931 
G01 X16.7664 Y8.9445 
G01 X16.6829 Y8.7807 
G01 X16.6261 Y8.6059 
G01 X16.5974 Y8.4244 
G01 X16.5974 Y8.2406 
G01 X16.6261 Y8.0591 
G01 X16.6526 Y7.9777 
G01 X16.5468 Y7.8719 
G01 X16.4830 Y7.7763 
G01 X16.4390 Y7.6702 
G01 X16.4166 Y7.5575 
G01 X16.4166 Y3.2417 
G01 X15.7584 Y2.5834 
G01 X13.0834 Y2.5834 
G01 X13.0834 Y7.2343 
G01 X13.1332 Y7.2504 
G01 X13.2970 Y7.3339 
G01 X13.4456 Y7.4419 
G01 X13.5756 Y7.5719 
G01 X13.6836 Y7.7205 
G01 X13.7671 Y7.8843 
G01 X13.8238 Y8.0591 
G01 X13.8526 Y8.2406 
G00 Z10.0000 
G00 X11.3126 Y8.2406 
G01 Z-0.1700 F300.00 
G01 X11.3126 Y8.4244 F300.00 
G01 X11.2838 Y8.6059 
G01 X11.2271 Y8.7807 
G01 X11.1436 Y8.9445 
G01 X11.0356 Y9.0931 
G01 X10.9056 Y9.2231 
G01 X10.7570 Y9.3311 
G01 X10.5932 Y9.4146 
G01 X10.4184 Y9.4713 
G01 X10.2369 Y9.5001 
G01 X10.0531 Y9.5001 
G01 X9.8716 Y9.4713 
G01 X9.6968 Y9.4146 
G01 X9.5330 Y9.3311 
G01 X9.3844 Y9.2231 
G01 X9.2544 Y9.0931 
G01 X9.1464 Y8.9445 
G01 X9.0629 Y8.7807 
G01 X9.0061 Y8.6059 
G01 X8.9774 Y8.4244 
G01 X8.9774 Y8.2406 
G01 X9.0061 Y8.0591 
G01 X9.0629 Y7.8843 
G01 X9.1464 Y7.7205 
G01 X9.2544 Y7.5719 
G01 X9.3844 Y7.4419 
G01 X9.5330 Y7.3339 
G01 X9.6968 Y7.2504 
G01 X9.8716 Y7.1937 
G01 X10.0531 Y7.1649 
G01 X10.2369 Y7.1649 
G01 X10.4184 Y7.1937 
G01 X10.5932 Y7.2504 
G01 X10.7570 Y7.3339 
G01 X10.9056 Y7.4419 
G01 X11.0356 Y7.5719 
G01 X11.1436 Y7.7205 
G01 X11.2271 Y7.8843 
G01 X11.2838 Y8.0591 
G01 X11.3126 Y8.2406 
G00 Z10.0000 
G00 X13.1945 Y7.2230 
G01 Z-0.1700 F300.00 
G01 X13.1564 Y7.1849 F300.00 
G01 X13.1358 Y7.1352 
G01 X13.1358 Y2.7443 
G01 X13.1564 Y2.6945 
G01 X13.1945 Y2.6564 
G01 X13.2443 Y2.6358 
G01 X15.7075 Y2.6358 
G01 X15.7573 Y2.6564 
G01 X15.7953 Y2.6945 
G01 X16.3055 Y3.2046 
G01 X16.3436 Y3.2427 
G01 X16.3642 Y3.2925 
G01 X16.3642 Y3.3759 
G01 X16.3436 Y3.4257 
G01 X16.3055 Y3.4637 
G01 X16.2557 Y3.4844 
G01 X16.2019 Y3.4844 
G01 X16.1521 Y3.4637 
G01 X16.1140 Y3.4257 
G01 X15.6086 Y2.9202 
G01 X14.8714 Y2.9202 
G01 X14.3502 Y3.4414 
G01 X14.3502 Y4.1786 
G01 X14.8055 Y4.6339 
G01 X14.8351 Y4.6634 
G01 X14.8436 Y4.6719 
G01 X14.8642 Y4.7217 
G01 X14.8642 Y7.0979 
G01 X14.8442 Y7.1462 
G01 X14.8055 Y7.1857 
G01 X14.7557 Y7.2064 
G01 X14.5339 Y7.2982 
G01 X14.1907 Y7.6414 
G01 X14.0904 Y7.8837 
G01 X14.0698 Y7.9334 
G01 X14.0323 Y7.9709 
G01 X13.9819 Y7.9921 
G01 X13.9281 Y7.9921 
G01 X13.8783 Y7.9715 
G01 X13.8408 Y7.9340 
G01 X13.8196 Y7.8837 
G01 X13.7193 Y7.6414 
G01 X13.3761 Y7.2982 
G01 X13.1945 Y7.2230 
G00 Z10.0000 
G00 X25.6140 Y25.9363 
G01 Z-0.1700 F300.00 
G01 X25.6476 Y25.9028 F300.00 
G01 X25.6521 Y25.8983 
G01 X25.7019 Y25.8776 
G01 X25.7557 Y25.8776 
G01 X25.8055 Y25.8983 
G01 X25.8436 Y25.9363 
G01 X25.8642 Y25.9861 
G01 X25.8642 Y27.3539 
G01 X25.8442 Y27.4022 
G01 X25.8055 Y27.4417 
G01 X25.7557 Y27.4624 
G01 X25.7019 Y27.4624 
G01 X25.6535 Y27.4423 
G01 X25.6140 Y27.4037 
G01 X25.3960 Y27.1857 
G01 X25.0690 Y27.0502 
G01 X23.1489 Y27.0502 
G01 X23.0991 Y27.0296 
G01 X23.0610 Y26.9915 
G01 X23.0404 Y26.9417 
G01 X23.0404 Y26.8879 
G01 X23.0610 Y26.8381 
G01 X23.0991 Y26.8000 
G01 X23.5887 Y26.3104 
G01 X23.6385 Y26.2898 
G01 X25.0690 Y26.2898 
G01 X25.3960 Y26.1543 
G01 X25.6140 Y25.9363 
G00 Z10.0000 
G00 X14.7557 Y11.9986 
G01 Z-0.1700 F300.00 
G01 X14.8055 Y12.0193 F300.00 
G01 X14.8436 Y12.0573 
G01 X14.8641 Y12.1069 
G01 X14.8642 Y22.1265 
G01 X14.9610 Y22.3601 
G01 X15.1398 Y22.5390 
G01 X15.3735 Y22.6358 
G01 X23.7075 Y22.6358 
G01 X23.7573 Y22.6564 
G01 X23.7846 Y22.6838 
G01 X25.4940 Y24.3931 
G01 X25.5047 Y24.4039 
G01 X25.5321 Y24.4312 
G01 X25.5527 Y24.4810 
G01 X25.5527 Y24.5348 
G01 X25.5321 Y24.5846 
G01 X25.4940 Y24.6227 
G01 X25.4442 Y24.6433 
G01 X25.3903 Y24.6433 
G01 X25.3406 Y24.6227 
G01 X25.0690 Y24.5102 
G01 X24.4932 Y24.5102 
G01 X24.4879 Y24.5119 
G01 X24.4664 Y24.5102 
G01 X24.4448 Y24.5102 
G01 X24.4397 Y24.5081 
G01 X24.4342 Y24.5077 
G01 X24.4150 Y24.4979 
G01 X24.3950 Y24.4896 
G01 X24.3822 Y24.4831 
G01 X24.3783 Y24.4792 
G01 X24.3735 Y24.4767 
G01 X24.3600 Y24.4609 
G01 X24.2911 Y24.4324 
G01 X24.2856 Y24.4320 
G01 X24.2664 Y24.4221 
G01 X24.2464 Y24.4139 
G01 X24.2425 Y24.4100 
G01 X24.1761 Y24.3761 
G01 X24.1553 Y24.3761 
G01 X24.1502 Y24.3741 
G01 X24.1448 Y24.3736 
G01 X24.1263 Y24.3642 
G01 X24.0517 Y24.3642 
G01 X24.0465 Y24.3659 
G01 X24.0250 Y24.3642 
G01 X24.0034 Y24.3642 
G01 X23.9983 Y24.3621 
G01 X23.9239 Y24.3563 
G01 X23.9047 Y24.3642 
G01 X23.8993 Y24.3642 
G01 X23.8941 Y24.3659 
G01 X23.8734 Y24.3643 
G01 X23.8045 Y24.3928 
G01 X23.8003 Y24.3964 
G01 X23.7798 Y24.4030 
G01 X23.7598 Y24.4113 
G01 X23.7543 Y24.4113 
G01 X23.6834 Y24.4344 
G01 X23.6687 Y24.4490 
G01 X23.6636 Y24.4511 
G01 X23.6595 Y24.4547 
G01 X23.6397 Y24.4611 
G01 X23.6113 Y24.4896 
G01 X23.5615 Y24.5102 
G01 X23.1910 Y24.5102 
G01 X22.8640 Y24.6457 
G01 X22.6137 Y24.8960 
G01 X22.4782 Y25.2230 
G01 X22.4782 Y25.5935 
G01 X22.4576 Y25.6433 
G01 X22.4195 Y25.6813 
G01 X22.2573 Y25.8436 
G01 X22.2075 Y25.8642 
G01 X19.7943 Y25.8642 
G01 X19.7445 Y25.8436 
G01 X19.7064 Y25.8055 
G01 X19.6858 Y25.7557 
G01 X19.6858 Y24.0035 
G01 X19.5890 Y23.7698 
G01 X19.4101 Y23.5910 
G01 X19.1765 Y23.4942 
G01 X15.9995 Y23.4942 
G01 X15.9497 Y23.4736 
G01 X15.9116 Y23.4355 
G01 X15.6401 Y23.1640 
G01 X14.8399 Y23.1640 
G01 X14.2740 Y23.7299 
G01 X14.2740 Y24.5301 
G01 X14.8399 Y25.0960 
G01 X15.6401 Y25.0960 
G01 X15.9497 Y24.7864 
G01 X15.9995 Y24.7658 
G01 X18.3057 Y24.7658 
G01 X18.3555 Y24.7864 
G01 X18.3936 Y24.8245 
G01 X18.4142 Y24.8743 
G01 X18.4142 Y26.1620 
G01 X18.3942 Y26.2103 
G01 X18.3555 Y26.2498 
G01 X18.2618 Y26.3435 
G01 X18.2618 Y26.9965 
G01 X18.7235 Y27.4582 
G01 X19.3427 Y27.4582 
G01 X19.3910 Y27.4782 
G01 X19.4305 Y27.5169 
G01 X19.4512 Y27.5667 
G01 X19.4512 Y27.6205 
G01 X19.4311 Y27.6689 
G01 X19.3925 Y27.7084 
G01 X19.2953 Y27.8055 
G01 X19.2573 Y27.8436 
G01 X19.2089 Y27.8636 
G01 X14.7443 Y27.8642 
G01 X14.6945 Y27.8436 
G01 X14.6564 Y27.8055 
G01 X14.6358 Y27.7557 
G01 X14.6358 Y27.1480 
G01 X14.6564 Y27.0983 
G01 X14.6945 Y27.0602 
G01 X14.7582 Y26.9965 
G01 X14.7582 Y26.3435 
G01 X14.2965 Y25.8818 
G01 X13.8101 Y25.8818 
G01 X13.7901 Y25.8735 
G01 X13.7603 Y25.8612 
G01 X13.7223 Y25.8231 
G01 X13.6945 Y25.7953 
G01 X13.6564 Y25.7573 
G01 X13.6358 Y25.7075 
G01 X13.6358 Y11.6762 
G01 X13.6564 Y11.6264 
G01 X13.6945 Y11.5883 
G01 X13.7193 Y11.5636 
G01 X13.8196 Y11.3213 
G01 X13.8402 Y11.2716 
G01 X13.8777 Y11.2341 
G01 X13.9281 Y11.2129 
G01 X13.9819 Y11.2129 
G01 X14.0317 Y11.2335 
G01 X14.0692 Y11.2710 
G01 X14.0904 Y11.3213 
G01 X14.1907 Y11.5636 
G01 X14.5339 Y11.9068 
G01 X14.7557 Y11.9986 
G00 Z10.0000 
G00 X17.8648 Y9.6001 
G01 Z-0.1700 F300.00 
G01 X17.6652 Y9.6001 F300.00 
G01 X17.5246 Y9.5778 
G01 X17.5246 Y9.6272 
G01 X17.6652 Y9.6049 
G01 X17.8648 Y9.6049 
G01 X18.0054 Y9.6272 
G01 X18.0054 Y9.5778 
G01 X17.8648 Y9.6001 
G00 Z10.0000 
G00 X9.8482 Y9.6361 
G01 Z-0.1700 F300.00 
G01 X10.0452 Y9.6049 F300.00 
G01 X10.2448 Y9.6049 
G01 X10.4418 Y9.6361 
G01 X10.4667 Y9.6442 
G01 X10.4566 Y9.6198 
G01 X10.4566 Y9.6103 
G01 X10.4537 Y9.6012 
G01 X10.4566 Y9.5641 
G01 X10.4418 Y9.5689 
G01 X10.2448 Y9.6001 
G01 X10.0452 Y9.6001 
G01 X9.8482 Y9.5689 
G01 X9.8334 Y9.5641 
G01 X9.8363 Y9.6012 
G01 X9.8334 Y9.6103 
G01 X9.8334 Y9.6198 
G01 X9.8233 Y9.6442 
G01 X9.8482 Y9.6361 
G00 Z10.0000 
G00 X6.7434 Y26.3966 
G01 Z-0.1700 F300.00 
G01 X6.7794 Y26.5777 F300.00 
G01 X6.7794 Y26.7623 
G01 X6.7434 Y26.9434 
G01 X6.7313 Y26.9726 
G01 X6.7756 Y26.9726 
G01 X6.8166 Y26.9896 
G01 X6.8166 Y26.3504 
G01 X6.7756 Y26.3674 
G01 X6.7313 Y26.3674 
G01 X6.7434 Y26.3966 
G00 Z10.0000 
G00 X16.2756 Y3.5844 
G01 Z-0.1700 F300.00 
G01 X16.1820 Y3.5844 F300.00 
G01 X16.1774 Y3.5825 
G01 X16.1774 Y3.9025 
G01 X16.1834 Y3.9327 
G01 X16.1834 Y3.9472 
G01 X16.1856 Y3.9615 
G01 X16.1834 Y4.0144 
G01 X16.1834 Y7.4982 
G01 X16.1919 Y7.5067 
G01 X16.3091 Y7.6681 
G01 X16.3997 Y7.8459 
G01 X16.4614 Y8.0357 
G01 X16.4926 Y8.2327 
G01 X16.4926 Y8.4323 
G01 X16.4703 Y8.5729 
G01 X16.5197 Y8.5729 
G01 X16.4974 Y8.4323 
G01 X16.4974 Y8.2327 
G01 X16.5286 Y8.0357 
G01 X16.5386 Y8.0050 
G01 X16.4692 Y7.9356 
G01 X16.3944 Y7.8237 
G01 X16.3429 Y7.6993 
G01 X16.3166 Y7.5673 
G01 X16.3166 Y3.5674 
G01 X16.2756 Y3.5844 
G00 Z10.0000 
G00 X13.9526 Y8.2327 
G01 Z-0.1700 F300.00 
G01 X13.9526 Y8.4323 F300.00 
G01 X13.9303 Y8.5729 
G01 X13.9797 Y8.5729 
G01 X13.9574 Y8.4323 
G01 X13.9574 Y8.2327 
G01 X13.9797 Y8.0921 
G01 X13.9303 Y8.0921 
G01 X13.9526 Y8.2327 
G00 Z10.0000 
G00 X11.4126 Y8.2327 
G01 Z-0.1700 F300.00 
G01 X11.4126 Y8.4323 F300.00 
G01 X11.3903 Y8.5729 
G01 X11.4397 Y8.5729 
G01 X11.4174 Y8.4323 
G01 X11.4174 Y8.2327 
G01 X11.4397 Y8.0921 
G01 X11.3903 Y8.0921 
G01 X11.4126 Y8.2327 
G00 Z10.0000 
G00 X11.4486 Y11.1693 
G01 Z-0.1700 F300.00 
G01 X11.4174 Y10.9723 F300.00 
G01 X11.4174 Y10.7727 
G01 X11.4486 Y10.5757 
G01 X11.4534 Y10.5609 
G01 X11.4163 Y10.5638 
G01 X11.4072 Y10.5609 
G01 X11.3977 Y10.5609 
G01 X11.3733 Y10.5508 
G01 X11.3814 Y10.5757 
G01 X11.4126 Y10.7727 
G01 X11.4126 Y10.9723 
G01 X11.3814 Y11.1693 
G01 X11.3733 Y11.1942 
G01 X11.3977 Y11.1841 
G01 X11.4072 Y11.1841 
G01 X11.4163 Y11.1812 
G01 X11.4534 Y11.1841 
G01 X11.4486 Y11.1693 
G00 Z10.0000 
G00 X13.9574 Y10.9723 
G01 Z-0.1700 F300.00 
G01 X13.9574 Y10.7727 F300.00 
G01 X13.9797 Y10.6321 
G01 X13.9303 Y10.6321 
G01 X13.9526 Y10.7727 
G01 X13.9526 Y10.9723 
G01 X13.9303 Y11.1129 
G01 X13.9797 Y11.1129 
G01 X13.9574 Y10.9723 
G00 Z10.0000 
G00 X22.7704 Y27.2119 
G01 Z-0.1700 F300.00 
G01 X22.9240 Y27.1093 F300.00 
G01 X23.0042 Y27.0761 
G01 X22.9773 Y27.0492 
G01 X22.9593 Y27.0072 
G01 X22.9356 Y27.0308 
G01 X22.8237 Y27.1056 
G01 X22.6993 Y27.1571 
G01 X22.5673 Y27.1834 
G01 X19.7186 Y27.1834 
G01 X19.4785 Y27.4235 
G01 X19.5153 Y27.4603 
G01 X19.5323 Y27.5012 
G01 X19.5644 Y27.4692 
G01 X19.6763 Y27.3944 
G01 X19.8007 Y27.3429 
G01 X19.9327 Y27.3166 
G01 X22.6657 Y27.3166 
G01 X22.7704 Y27.2119 
G00 Z10.0000 
G00 X15.6086 Y36.5954 
G01 Z-0.1700 F300.00 
G01 X15.5931 Y36.5172 F300.00 
G01 X15.5684 Y36.5419 
G01 X15.5264 Y36.5599 
G01 X15.6417 Y36.6752 
G01 X15.6086 Y36.5954 
G00 Z10.0000 
G00 X25.8066 Y33.2269 
G01 Z-0.1700 F300.00 
G01 X25.8166 Y33.2169 F300.00 
G01 X25.8166 Y33.1766 
G01 X25.8066 Y33.2269 
G00 Z10.0000 
G00 X25.8018 Y32.5657 
G01 Z-0.1700 F300.00 
G01 X25.7756 Y32.5766 F300.00 
G01 X25.7567 Y32.5766 
G01 X25.7382 Y32.5810 
G01 X25.7238 Y32.5787 
G01 X25.7934 Y32.7466 
G01 X25.8166 Y32.8634 
G01 X25.8166 Y32.5622 
G01 X25.8018 Y32.5657 
G00 Z10.0000 
G00 X25.7934 Y30.7534 
G01 Z-0.1700 F300.00 
G01 X25.7502 Y30.8576 F300.00 
G01 X25.7756 Y30.8576 
G01 X25.8166 Y30.8746 
G01 X25.8166 Y30.6366 
G01 X25.7934 Y30.7534 
G00 Z10.0000 
G00 X25.7756 Y30.1024 
G01 Z-0.1700 F300.00 
G01 X25.7502 Y30.1024 F300.00 
G01 X25.7934 Y30.2066 
G01 X25.8166 Y30.3234 
G01 X25.8166 Y30.0854 
G01 X25.7756 Y30.1024 
G00 Z10.0000 
G00 X25.7934 Y28.2134 
G01 Z-0.1700 F300.00 
G01 X25.7502 Y28.3176 F300.00 
G01 X25.7756 Y28.3176 
G01 X25.8166 Y28.3346 
G01 X25.8166 Y28.0966 
G01 X25.7934 Y28.2134 
G00 Z10.0000 
G00 X25.7756 Y27.5624 
G01 Z-0.1700 F300.00 
G01 X25.7502 Y27.5624 F300.00 
G01 X25.7934 Y27.6666 
G01 X25.8166 Y27.7834 
G01 X25.8166 Y27.5454 
G01 X25.7756 Y27.5624 
G00 Z10.0000 
G00 X25.7934 Y25.6734 
G01 Z-0.1700 F300.00 
G01 X25.7502 Y25.7776 F300.00 
G01 X25.7756 Y25.7776 
G01 X25.8166 Y25.7946 
G01 X25.8166 Y25.5566 
G01 X25.7934 Y25.6734 
G00 Z10.0000 
G00 X24.2512 Y21.3492 
G01 Z-0.1700 F300.00 
G01 X24.2512 Y21.3492 F300.00 
G01 X24.2657 Y21.3144 
G01 X24.2871 Y21.2627 
G01 X24.2916 Y21.2581 
G01 X23.2757 Y21.2574 
G01 X23.0946 Y21.2214 
G01 X23.0237 Y21.1920 
G01 X23.0237 Y21.2103 
G01 X23.0281 Y21.2382 
G01 X23.0237 Y21.2567 
G01 X23.0237 Y21.2756 
G01 X23.0128 Y21.3018 
G01 X23.0093 Y21.3166 
G01 X24.0673 Y21.3166 
G01 X24.1993 Y21.3429 
G01 X24.2512 Y21.3644 
G01 X24.2512 Y21.3492 
G00 Z10.0000 
G00 X25.6168 Y24.6412 
G01 Z-0.1700 F300.00 
G01 X25.5516 Y24.7064 F300.00 
G01 X25.5506 Y24.7075 
G01 X25.5326 Y24.7149 
G01 X25.6201 Y24.8024 
G01 X25.7227 Y24.9560 
G01 X25.7934 Y25.1266 
G01 X25.8166 Y25.2434 
G01 X25.8166 Y24.7831 
G01 X25.6338 Y24.6003 
G01 X25.6168 Y24.6412 
G00 Z10.0000 
G00 X25.0038 Y33.9535 
G01 Z-0.1700 F300.00 
G01 X25.0129 Y33.9627 F300.00 
G01 X25.0299 Y34.0036 
G01 X25.0989 Y33.9346 
G01 X25.0038 Y33.9535 
G00 Z10.0000 
G00 X16.8679 Y37.3017 
G01 Z-0.1700 F300.00 
G01 X16.8571 Y37.2756 F300.00 
G01 X16.8571 Y37.2567 
G01 X16.8527 Y37.2382 
G01 X16.8571 Y37.2103 
G01 X16.8571 Y37.1929 
G01 X16.7834 Y37.2234 
G01 X16.6023 Y37.2594 
G01 X16.4177 Y37.2594 
G01 X16.2366 Y37.2234 
G01 X16.1568 Y37.1903 
G01 X16.2831 Y37.3166 
G01 X16.8715 Y37.3166 
G01 X16.8679 Y37.3017 
G00 Z10.0000 
G00 X16.4974 Y10.9723 
G01 Z-0.1700 F300.00 
G01 X16.4974 Y10.7727 F300.00 
G01 X16.5197 Y10.6321 
G01 X16.4703 Y10.6321 
G01 X16.4926 Y10.7727 
G01 X16.4926 Y10.9723 
G01 X16.4703 Y11.1129 
G01 X16.5197 Y11.1129 
G01 X16.4974 Y10.9723 
G00 Z10.0000 
G00 X15.1252 Y9.6049 
G01 Z-0.1700 F300.00 
G01 X15.3248 Y9.6049 F300.00 
G01 X15.4654 Y9.6272 
G01 X15.4654 Y9.5778 
G01 X15.3248 Y9.6001 
G01 X15.1252 Y9.6001 
G01 X14.9846 Y9.5778 
G01 X14.9846 Y9.6272 
G01 X15.1252 Y9.6049 
G00 Z10.0000 
G00 X6.7893 Y34.3540 
G01 Z-0.1700 F300.00 
G01 X6.8919 Y34.2004 F300.00 
G01 X7.0224 Y34.0699 
G01 X7.1760 Y33.9673 
G01 X7.1952 Y33.9593 
G01 X7.1896 Y33.9538 
G01 X7.1811 Y33.9495 
G01 X7.1567 Y33.9209 
G01 X7.1301 Y33.8943 
G01 X7.1265 Y33.8855 
G01 X7.1203 Y33.8782 
G01 X7.1124 Y33.8541 
G01 X6.6761 Y34.2904 
G01 X6.7002 Y34.2983 
G01 X6.7075 Y34.3045 
G01 X6.7163 Y34.3081 
G01 X6.7429 Y34.3347 
G01 X6.7715 Y34.3591 
G01 X6.7758 Y34.3676 
G01 X6.7813 Y34.3732 
G01 X6.7893 Y34.3540 
G00 Z10.0000 
G00 X6.7434 Y28.9366 
G01 Z-0.1700 F300.00 
G01 X6.7794 Y29.1177 F300.00 
G01 X6.7794 Y29.3023 
G01 X6.7434 Y29.4834 
G01 X6.7015 Y29.5846 
G01 X6.7103 Y29.5846 
G01 X6.7382 Y29.5802 
G01 X6.7567 Y29.5846 
G01 X6.7756 Y29.5846 
G01 X6.8018 Y29.5954 
G01 X6.8166 Y29.5990 
G01 X6.8166 Y28.8210 
G01 X6.8018 Y28.8246 
G01 X6.7756 Y28.8354 
G01 X6.7567 Y28.8354 
G01 X6.7382 Y28.8398 
G01 X6.7103 Y28.8354 
G01 X6.7015 Y28.8354 
G01 X6.7434 Y28.9366 
G00 Z10.0000 
G00 X12.7848 Y9.6001 
G01 Z-0.1700 F300.00 
G01 X12.5852 Y9.6001 F300.00 
G01 X12.4446 Y9.5778 
G01 X12.4446 Y9.6272 
G01 X12.5852 Y9.6049 
G01 X12.7848 Y9.6049 
G01 X12.9254 Y9.6272 
G01 X12.9254 Y9.5778 
G01 X12.7848 Y9.6001 
G00 Z10.0000 
G00 X27.2799 Y1.7719 
G01 Z-0.1700 F300.00 
G01 X27.3138 Y1.7787 F300.00 
G01 X27.3457 Y1.7919 
G01 X27.3745 Y1.8111 
G01 X27.3989 Y1.8355 
G01 X27.4181 Y1.8643 
G01 X27.4313 Y1.8962 
G01 X27.4381 Y1.9301 
G01 X27.4381 Y2.1150 
G01 X27.6370 Y1.9161 
G01 X27.7404 Y1.6663 
G01 X27.8067 Y1.6000 
G01 X27.8932 Y1.5642 
G01 X27.9868 Y1.5642 
G01 X28.0733 Y1.6000 
G01 X28.1396 Y1.6663 
G01 X28.1754 Y1.7528 
G01 X28.1754 Y23.2089 
G01 X28.4356 Y23.4692 
G01 X28.5308 Y23.5644 
G01 X28.6056 Y23.6763 
G01 X28.6571 Y23.8007 
G01 X28.6834 Y23.9327 
G01 X28.6834 Y35.5673 
G01 X28.6571 Y35.6993 
G01 X28.6056 Y35.8237 
G01 X28.5308 Y35.9356 
G01 X28.1754 Y36.2911 
G01 X28.1754 Y38.8872 
G01 X28.1396 Y38.9737 
G01 X28.0733 Y39.0400 
G01 X27.9868 Y39.0758 
G01 X27.8932 Y39.0758 
G01 X27.8067 Y39.0400 
G01 X27.7404 Y38.9737 
G01 X27.7327 Y38.9552 
G01 X27.6370 Y38.7239 
G01 X27.3161 Y38.4030 
G01 X26.8969 Y38.2294 
G01 X26.4431 Y38.2294 
G01 X26.0914 Y38.3751 
G01 X25.6751 Y38.7914 
G01 X25.5294 Y39.1431 
G01 X25.5294 Y39.5969 
G01 X25.7030 Y40.0161 
G01 X26.0239 Y40.3370 
G01 X26.2737 Y40.4404 
G01 X26.3400 Y40.5067 
G01 X26.3758 Y40.5932 
G01 X26.3758 Y40.6868 
G01 X26.3400 Y40.7733 
G01 X26.2737 Y40.8396 
G01 X26.1872 Y40.8754 
G01 X1.7528 Y40.8754 
G01 X1.6663 Y40.8396 
G01 X1.6000 Y40.7733 
G01 X1.5642 Y40.6868 
G01 X1.5642 Y40.5932 
G01 X1.6000 Y40.5067 
G01 X1.6663 Y40.4404 
G01 X1.6848 Y40.4327 
G01 X1.9161 Y40.3370 
G01 X2.2370 Y40.0161 
G01 X2.4106 Y39.5969 
G01 X2.4106 Y39.1431 
G01 X2.2370 Y38.7239 
G01 X1.9161 Y38.4030 
G01 X1.4969 Y38.2294 
G01 X1.0292 Y38.2294 
G01 X0.9427 Y38.1936 
G01 X0.8764 Y38.1273 
G01 X0.8406 Y38.0408 
G01 X0.8406 Y2.5992 
G01 X0.8764 Y2.5127 
G01 X0.9427 Y2.4464 
G01 X1.0292 Y2.4106 
G01 X1.4969 Y2.4106 
G01 X1.7595 Y2.3018 
G01 X1.8027 Y2.2839 
G01 X1.8443 Y2.2667 
G01 X1.8478 Y2.2660 
G01 X1.8929 Y2.2667 
G01 X1.9380 Y2.2667 
G01 X1.9414 Y2.2674 
G01 X1.9828 Y2.2852 
G01 X2.0245 Y2.3025 
G01 X2.0274 Y2.3045 
G01 X2.0588 Y2.3368 
G01 X2.0615 Y2.3395 
G01 X2.0845 Y2.3063 
G01 X2.1192 Y2.2544 
G01 X2.1227 Y2.2508 
G01 X2.1256 Y2.2467 
G01 X2.1702 Y2.2033 
G01 X2.2144 Y2.1592 
G01 X2.2185 Y2.1564 
G01 X2.2221 Y2.1529 
G01 X2.2744 Y2.1190 
G01 X2.3220 Y2.0873 
G01 X2.2898 Y2.0552 
G01 X2.2761 Y2.0221 
G01 X2.2540 Y1.9686 
G01 X2.2540 Y1.9221 
G01 X2.2540 Y1.8750 
G01 X2.2721 Y1.8313 
G01 X2.2898 Y1.7885 
G01 X2.4106 Y1.4969 
G01 X2.4106 Y1.0292 
G01 X2.4464 Y0.9427 
G01 X2.5127 Y0.8764 
G01 X2.5992 Y0.8406 
G01 X25.3408 Y0.8406 
G01 X25.4273 Y0.8764 
G01 X25.4936 Y0.9427 
G01 X25.5294 Y1.0292 
G01 X25.5294 Y1.4969 
G01 X25.5876 Y1.6373 
G01 X25.5876 Y1.7310 
G01 X25.5731 Y1.7658 
G01 X25.5706 Y1.7719 
G01 X27.2799 Y1.7719 
G00 Z10.0000 
G00 X26.9642 Y40.6868 
G01 Z-0.1700 F300.00 
G01 X26.9642 Y40.5932 F300.00 
G01 X27.0000 Y40.5067 
G01 X27.0663 Y40.4404 
G01 X27.0848 Y40.4327 
G01 X27.3161 Y40.3370 
G01 X27.6370 Y40.0161 
G01 X27.7404 Y39.7663 
G01 X27.8067 Y39.7000 
G01 X27.8932 Y39.6642 
G01 X27.9868 Y39.6642 
G01 X28.0733 Y39.7000 
G01 X28.1396 Y39.7663 
G01 X28.1754 Y39.8528 
G01 X28.1754 Y40.6868 
G01 X28.1396 Y40.7733 
G01 X28.0733 Y40.8396 
G01 X27.9868 Y40.8754 
G01 X27.1528 Y40.8754 
G01 X27.0663 Y40.8396 
G01 X27.0000 Y40.7733 
G01 X26.9642 Y40.6868 
G00 Z10.0000 
G00 Z10.000000
G00 X1.2700 Y39.3700 
G01 Z-0.2794 F300.00 
G01 Z10.000000
(R10.0000  P1.000000)
(G00 Z10.000000)
G00 X26.6700 Y39.3700 
G01 Z-1.000000
G01 Z10.000000
(G00 Z10.000000)
G00 X1.2700 Y1.2700 
G01 Z-1.000000
G01 Z10.000000
(G00 Z10.000000)
G00 X26.6700 Y1.2700 
G01 Z-1.000000
G01 Z10.000000
(G00 Z10.000000)
G00 X15.2400 Y24.1300 
G01 Z-1.000000
G01 Z10.000000
(G00 Z10.000000)
G00 X7.6200 Y24.1300 
G01 Z-1.000000
G01 Z10.000000
(G00 Z10.000000)
G00 X5.0800 Y24.1300 
G01 Z-1.000000
G01 Z10.000000
(G00 Z10.000000)
G00 X5.0800 Y26.6700 
G01 Z-1.000000
G01 Z10.000000
(G00 Z10.000000)
G00 X5.0800 Y29.2100 
G01 Z-1.000000
G01 Z10.000000
(G00 Z10.000000)
G00 X5.0800 Y35.5600 
G01 Z-1.000000
G01 Z10.000000
(G00 Z10.000000)
G00 X7.6200 Y35.5600 
G01 Z-1.000000
G01 Z10.000000
(G00 Z10.000000)
G00 X24.1300 Y15.2400 
G01 Z-1.000000
G01 Z10.000000
(G00 Z10.000000)
G00 X24.1300 Y17.7800 
G01 Z-1.000000
G01 Z10.000000
(G00 Z10.000000)
G00 X24.1300 Y20.3200 
G01 Z-1.000000
G01 Z10.000000
(G00 Z10.000000)
G00 X24.1300 Y25.4000 
G01 Z-1.000000
G01 Z10.000000
(G00 Z10.000000)
G00 X24.1300 Y27.9400 
G01 Z-1.000000
G01 Z10.000000
(G00 Z10.000000)
G00 X24.1300 Y30.4800 
G01 Z-1.000000
G01 Z10.000000
(G00 Z10.000000)
G00 X24.1300 Y33.0200 
G01 Z-1.000000
G01 Z10.000000
(G00 Z10.000000)
G00 X11.4300 Y35.5600 
G01 Z-1.000000
G01 Z10.000000
(G00 Z10.000000)
G00 X13.9700 Y35.5600 
G01 Z-1.000000
G01 Z10.000000
(G00 Z10.000000)
G00 X16.5100 Y35.5600 
G01 Z-1.000000
G01 Z10.000000
(G00 Z10.000000)
G00 X15.2400 Y3.8100 
G01 Z-1.000000
G01 Z10.000000
(G00 Z10.000000)
G00 X19.0500 Y26.6700 
G01 Z-1.000000
G01 Z10.000000
(G00 Z10.000000)
G00 X13.9700 Y26.6700 
G01 Z-1.000000
G01 Z10.000000
(G00 Z10.000000)
G00 X12.6850 Y8.3325 
G01 Z-1.000000
G01 Z10.000000
(G00 Z10.000000)
G00 X10.1450 Y10.8725 
G01 Z-1.000000
G01 Z10.000000
(G00 Z10.000000)
G00 X15.2250 Y10.8725 
G01 Z-1.000000
G01 Z10.000000
(G00 Z10.000000)
G00 X12.6850 Y10.8725 
G01 Z-1.000000
G01 Z10.000000
(G00 Z10.000000)
G00 X15.2250 Y8.3325 
G01 Z-1.000000
G01 Z10.000000
(G00 Z10.000000)
G00 X17.7650 Y10.8725 
G01 Z-1.000000
G01 Z10.000000
(G00 Z10.000000)
G00 X10.1450 Y8.3325 
G01 Z-1.000000
G01 Z10.000000
(G00 Z10.000000)
G00 X17.7650 Y8.3325 
G01 Z-1.000000
G01 Z10.000000
G00 Z20.0000 
M05
M02
